!!!COM: Haydn, Franz Joseph
!!!OPR: Symphony in D Major
!!!OTL: Menuetto and Trio
!!!OMV: 3
!!!SCT: H I:101
!!!SCA: Thematisch-bibliographisches Werkevererzeichnis (A. van Hoboken)
!!!YOR: Dover Edition; reprint of Eulenburg Edition
!!!EED: Frances Bennion
!!!ENC: Frances Bennion
!!!CDT: 1732/3/31/-1809/5/31/
!!!OCY: Österreich
!!!YEC: Copyright (c) 1994, 2000 Center for Computer Assisted Research in the Humanities
!!!YEM: Rights to all derivative editions reserved.
!!!YEM: Refer to licensing agreement for further details.
!!!YEN: United States of America
**kern	**dynam	**kern	**dynam	**kern	**dynam	**kern	**dynam	**kern	**dynam	**kern	**dynam	**kern	**dynam	**kern	**dynam	**kern	**dynam	**kern	**dynam	**kern	**dynam
*I:Flauto 1, 2	*I:Flauto 1, 2	*I:Viola	*I:Viola	*I:Violoncello e Contrabasso	*I:Violoncello e Contrabasso	*I:Oboe 1, 2	*I:Oboe 1, 2	*I:Clarinetto 1, 2 in A	*I:Clarinetto 1, 2 in A	*I:Fagotto 1, 2	*I:Fagotto 1, 2	*I:Corno 1, 2 in D	*I:Corno 1, 2 in D	*I:Tromba 1, 2 in D	*I:Tromba 1, 2 in D	*I:Timpani in D, A	*I:Timpani in D, A	*I:Violino I	*I:Violino I	*I:Violino II	*I:Violino II
*>[A,A,B,B,C,D,D]	*	*>[A,A,B,C,C]	*	*>[A,A,B,B,C,D,D]	*	*>[A,A,B,B,C,D,D]	*	*>[A,A,B,B,C,D,D]	*	*>[A,A,B,B,C,D,D]	*	*>[A,A,B,B,C,D,D]	*	*>[A,A,B,B,C,D,D]	*	*>[A,A,B,B,C,D,D]	*	*>[A,A,B,B,C,D,D]	*	*>[A,A,B,A,A,B,C,D,D]	*
*>A	*	*>A	*	*>A	*	*>A	*	*>A	*	*>A	*	*>A	*	*>A	*	*>A	*	*>A	*	*>A	*
*clefG2	*	*clefC3	*	*clefF4	*	*clefG2	*	*clefG2	*	*clefF4	*	*clefG2	*	*clefG2	*	*clefF4	*	*clefG2	*	*clefG2	*
*k[f#c#]	*	*k[f#c#]	*	*k[f#c#]	*	*k[f#c#]	*	*k[b-]	*	*k[f#c#]	*	*k[]	*	*k[]	*	*k[]	*	*k[f#c#]	*	*k[f#c#]	*
*D:	*	*D:	*	*D:	*	*D:	*	*D:	*	*D:	*	*D:	*	*D:	*	*D:	*	*D:	*	*D:	*
*M3/4	*	*M3/4	*	*M3/4	*	*M3/4	*	*M3/4	*	*M3/4	*	*M3/4	*	*M3/4	*	*M3/4	*	*M3/4	*	*M3/4	*
! Menuetto. Allegretto	!	!	!	!	!	!	!	!	!	!	!	!	!	!	!	!	!	!	!	!	!
! zu 2	!	!	!	!	!	!	!	!	!	!	!	!	!	!	!	!	!	!	!	!	!
*tb16	*	*tb16	*	*tb16	*	*tb16	*	*tb16	*	*tb16	*	*tb16	*	*tb16	*	*tb16	*	*tb16	*	*tb16	*
=0-	=0-	=0-	=0-	=0-	=0-	=0-	=0-	=0-	=0-	=0-	=0-	=0-	=0-	=0-	=0-	=0-	=0-	=0-	=0-	=0-	=0-
*	*	*	*	*	*	*^	*	*^	*	*	*	*^	*	*^	*	*	*	*	*	*	*
4a/xx	f	4r	.	4r	.	2ryy	4a\	.	2ryy	4cc\	.	4r	.	2ryy	4r	.	2ryy	4r	.	4r	.	4a/xx	f	4a/xx	f
2ryy	.	2ryy	.	2ryy	.	.	2ryy	.	.	2ryy	.	2ryy	.	.	2ryy	.	.	2ryy	.	2ryy	.	2ryy	.	2ryy	.
.	.	.	.	.	.	4a/xx	.	f	4cc/xx	.	f	.	.	4r	.	.	4r	.	.	.	.	.	.	.	.
=1	=1	=1	=1	=1	=1	=1	=1	=1	=1	=1	=1	=1	=1	=1	=1	=1	=1	=1	=1	=1	=1	=1	=1	=1	=1
!	!	!	!	!	!	!	!	!	!	!	!	! zu 2	!	!	!	!	!	!	!	!	!	!	!	!	!
4dd'\	.	4A'/xx	f	4D'\xx	f	4dd/	4f#'/	.	4ff'\	4a\	.	4D'\xx	f	4ee'\xx	4cc'\xx	ff	4ee'\xx	4cc\	f	4D\xx	f	4dd'\	.	4f#'/	.
4dd'\	.	4A'/	.	4D'\	.	4dd/	4f#'/	.	4ff'\	4a\	.	4D'\	.	4ee'\	4cc'\	.	4ee'\	4cc\	.	4r	.	4dd'\	.	4f#'/	.
4cc#'\	.	4A'/	.	4E'\	.	4cc#/	4g'/	.	4ee'\	4g\	.	4E'\	.	4dd'\	4g'\	.	4dd'\	4g\	.	4r	.	4cc#'\	.	4g'/	.
=2	=2	=2	=2	=2	=2	=2	=2	=2	=2	=2	=2	=2	=2	=2	=2	=2	=2	=2	=2	=2	=2	=2	=2	=2	=2
2eez\	z	2Az/	z	2C#z/	z	2eez\	2g\	z	2ggz\	2b-\	z	2C#z/	z	2ddz\	2g\	z	2ddz\	2g\	z	4AA/	.	2eez\ 2a\	z	2gz/ 2A/	z
.	.	.	.	.	.	.	.	.	.	.	.	.	.	.	.	.	.	.	.	4r	.	.	.	.	.
(16dd\LL	.	4r	.	4r	.	(16dd/LL	4r	.	(16ff/LL	4r	.	4r	.	4r	4r	.	4r	4r	.	4r	.	(16dd\LL	.	4r	.
16cc#\	.	.	.	.	.	16cc#/	.	.	16ee/	.	.	.	.	.	.	.	.	.	.	.	.	16cc#\	.	.	.
16b\	.	.	.	.	.	16b/	.	.	16dd/	.	.	.	.	.	.	.	.	.	.	.	.	16b\	.	.	.
16a\JJ)	.	.	.	.	.	16a/JJ)	.	.	16cc/JJ)	.	.	.	.	.	.	.	.	.	.	.	.	16a\JJ)	.	.	.
=3	=3	=3	=3	=3	=3	=3	=3	=3	=3	=3	=3	=3	=3	=3	=3	=3	=3	=3	=3	=3	=3	=3	=3	=3	=3
4ff#'\	.	4A'/	.	4d'\	.	4ff#'\	4a\	.	4aa'\	4ff\	.	4d'\	.	4ee'\	4cc\	.	4ee'\	4cc\	.	4D'\	.	4ff#'\	.	4a'/	.
4ff#'\	.	4A'/	.	4d'\	.	4ff#'\	4a\	.	4aa'\	4ff\	.	4d'\	.	4ee'\	4cc\	.	4ee'\	4cc\	.	4D'\	.	4ff#'\	.	4a'/	.
4ee'\	.	4A'/	.	4c#'\	.	4ee'\	4a\	.	4gg'\	4ee\	.	4c#'\	.	4dd'\	4g\	.	4dd'\	4g\	.	4AA'/	.	4ee'\	.	4a'/	.
=4	=4	=4	=4	=4	=4	=4	=4	=4	=4	=4	=4	=4	=4	=4	=4	=4	=4	=4	=4	=4	=4	=4	=4	=4	=4
4gg\	.	4A/	.	4e\	.	4gg\	4a\	.	4bb-\	4gg\	.	4e\	.	4dd\	4g\	.	4dd\	4g\	.	4AA/	.	4gg\	.	4c#/	.
4r	.	4r	.	4r	.	4r	4r	.	4r	4r	.	4r	.	4r	4r	.	4r	4r	.	4r	.	4r	.	4r	.
! 1.	!	!	!	!	!	!	!	!	!	!	!	!	!	!	!	!	!	!	!	!	!	!	!	!	!
(4a/	p	(4A/ 4F#/	p	4r	.	4r	4r	.	4r	4r	.	4r	.	4r	4r	.	4r	4r	.	4r	.	(4a/	p	(4f#/	p
=5	=5	=5	=5	=5	=5	=5	=5	=5	=5	=5	=5	=5	=5	=5	=5	=5	=5	=5	=5	=5	=5	=5	=5	=5	=5
4aa\)	.	4a\ 4f#\)	.	2.r	.	2.r	2.r	.	2.r	2.r	.	2.r	.	2.r	2.r	.	2.r	2.r	.	2.r	.	4aa\)	.	4ff#\)	.
4aa'\	.	4a'\ 4f#\	.	.	.	.	.	.	.	.	.	.	.	.	.	.	.	.	.	.	.	4aa'\	.	4ff#'\	.
(4b\	.	(4B/ 4G/	.	.	.	.	.	.	.	.	.	.	.	.	.	.	.	.	.	.	.	(4b\	.	(4g/	.
=6	=6	=6	=6	=6	=6	=6	=6	=6	=6	=6	=6	=6	=6	=6	=6	=6	=6	=6	=6	=6	=6	=6	=6	=6	=6
4bb\)	.	4b\ 4g\)	.	2.r	.	2.r	2.r	.	2.r	2.r	.	2.r	.	2.r	2.r	.	2.r	2.r	.	2.r	.	4bb\)	.	4gg\)	.
4bb'\	.	4b'\ 4g\	.	.	.	.	.	.	.	.	.	.	.	.	.	.	.	.	.	.	.	4bb'\	.	4gg'\	.
4aa\	.	4a\ 4f#\	.	.	.	.	.	.	.	.	.	.	.	.	.	.	.	.	.	.	.	4aa\	.	4ff#\	.
=7	=7	=7	=7	=7	=7	=7	=7	=7	=7	=7	=7	=7	=7	=7	=7	=7	=7	=7	=7	=7	=7	=7	=7	=7	=7
(4gg#\	.	(4g#\ 4e#\	.	2.r	.	2.r	2.r	.	2.r	2.r	.	2.r	.	2.r	2.r	.	2.r	2.r	.	2.r	.	(4gg#\	.	(4ee#\	.
4ggn\	.	4gn\ 4en\	.	.	.	.	.	.	.	.	.	.	.	.	.	.	.	.	.	.	.	4ggn\	.	4een\	.
4ff#\)	.	4f#\ 4d\)	.	.	.	.	.	.	.	.	.	.	.	.	.	.	.	.	.	.	.	4ff#\)	.	4dd\)	.
=8	=8	=8	=8	=8	=8	=8	=8	=8	=8	=8	=8	=8	=8	=8	=8	=8	=8	=8	=8	=8	=8	=8	=8	=8	=8
4ee'\	.	4e\ 4A\	.	2.r	.	4r	4ryy	.	4r	4r	.	2.r	.	2.r	2.r	.	2.r	2.r	.	2.r	.	4ee\	.	4a/	.
4r	.	4r	.	.	.	4r	4ryy	.	4r	4r	.	.	.	.	.	.	.	.	.	.	.	4r	.	4r	.
! zu 2	!	!	!	!	!	!	!	!	!	!	!	!	!	!	!	!	!	!	!	!	!	!	!	!	!
4a/	f	4r	.	.	.	4a/	4a\	f	4cc/	4cc\	f	.	.	.	.	.	.	.	.	.	.	4a/	f	4a/	f
=9	=9	=9	=9	=9	=9	=9	=9	=9	=9	=9	=9	=9	=9	=9	=9	=9	=9	=9	=9	=9	=9	=9	=9	=9	=9
4dd'\	.	4A'/	f	4D'\	f	4dd/	4f#'/	.	4ff'\	4a\	.	4D'\	f	4ee'\	4cc\	f	4ee'\	4cc\	f	4D\	f	4dd'\	.	4f#'/	.
4dd'\	.	4A'/	.	4D'\	.	4dd/	4f#'/	.	4ff'\	4a\	.	4D'\	.	4ee'\	4cc\	.	4ee'\	4cc\	.	4r	.	4dd'\	.	4f#'/	.
4cc#'\	.	4A'/	.	4E'\	.	4cc#/	4g'/	.	4ee'\	4g\	.	4E'\	.	4dd'\	4g\	.	4dd'\	4g/	.	4r	.	4cc#'\	.	4g'/	.
=10	=10	=10	=10	=10	=10	=10	=10	=10	=10	=10	=10	=10	=10	=10	=10	=10	=10	=10	=10	=10	=10	=10	=10	=10	=10
2eez\	z	2Az/	z	2C#z/	z	2eez\	2g\	z	4ggz\xx	4b-\	z	2C#z/	z	2ddz\	2g\	z	2ddz\	2g\	z	4AA/	.	2eez\ 2a\	z	2gz/ 2A/	z
.	.	.	.	.	.	.	.	.	4r	4r	.	.	.	.	.	.	.	.	.	4r	.	.	.	.	.
(16dd\LL	.	4r	.	4r	.	(16dd/LL	4r	.	4cc/	4cc\	.	4r	.	4r	4r	.	4r	4r	.	4r	.	(16dd\LL	.	4r	.
16cc#\	.	.	.	.	.	16cc#/	.	.	.	.	.	.	.	.	.	.	.	.	.	.	.	16cc#\	.	.	.
16b\	.	.	.	.	.	16b/	.	.	.	.	.	.	.	.	.	.	.	.	.	.	.	16b\	.	.	.
16a\JJ)	.	.	.	.	.	16a/JJ)	.	.	.	.	.	.	.	.	.	.	.	.	.	.	.	16a\JJ)	.	.	.
=11	=11	=11	=11	=11	=11	=11	=11	=11	=11	=11	=11	=11	=11	=11	=11	=11	=11	=11	=11	=11	=11	=11	=11	=11	=11
4ff#'\	.	4d'\	.	4d'\	.	4ff#'/	2a\	.	4aa'/	2.ff\	.	4d'\	.	4ee\	4cc\	.	4ee\	4cc\	.	4D\	.	4ff#'\	.	4a'/	.
(4ff#\	.	(4d\	.	(4d\	.	(4ff#/	.	.	(4aa/	.	.	(4d\	.	4ee\	4cc\	.	4ee\	4cc\	.	4D\	.	(4ff#\	.	(4a/	.
4gg#\)	.	4B/)	.	4B\)	.	4gg#/)	4dd\	.	4bbn/)	.	.	4B\)	.	4cc\	4cc\	.	4cc/	4cc\	.	4D\	.	4gg#\)	.	4d/)	.
=12	=12	=12	=12	=12	=12	=12	=12	=12	=12	=12	=12	=12	=12	=12	=12	=12	=12	=12	=12	=12	=12	=12	=12	=12	=12
4aa'\	.	4A'/	.	4c#'\	.	4aa'/	4ee\	.	4ccc\	4ee\	.	4c#'\	.	2dd\	2g/	.	2dd\	2g\	.	4AA/	.	4aa'\	.	4e/	.
(4aa\	.	(4A/	.	(4c#\	.	(4aa/	2ee\	.	4r	4r	.	(4c#\	.	.	.	.	.	.	.	4r	.	(4aa\	.	2e/	.
4bb\)	.	4G#/)	.	4G#\)	.	4bb/)	.	.	4r	4r	.	4G#\)	.	4r	4r	.	4r	4r	.	4r	.	4bb\)	.	.	.
=13	=13	=13	=13	=13	=13	=13	=13	=13	=13	=13	=13	=13	=13	=13	=13	=13	=13	=13	=13	=13	=13	=13	=13	=13	=13
4ccc#'\	.	4A'/	.	4A'\	.	4ccc#'/	4ee\	.	2.r	2.r	.	4A'\	.	2.r	2.r	.	2.r	2.r	.	2.r	.	4ccc#'\	.	4e/	.
(4ccc#\	.	(4A/	.	(4A\	.	(4ccc#/	2ee\	.	.	.	.	(4A\	.	.	.	.	.	.	.	.	.	(4ccc#\	.	2e/	.
4ddd\)	.	4B/)	.	4B\)	.	4ddd/)	.	.	.	.	.	4B\)	.	.	.	.	.	.	.	.	.	4ddd\)	.	.	.
=14	=14	=14	=14	=14	=14	=14	=14	=14	=14	=14	=14	=14	=14	=14	=14	=14	=14	=14	=14	=14	=14	=14	=14	=14	=14
(8eee\L	.	4c#\	.	2c#\	.	(8eee/L	4ee\	.	2.r	2.r	.	2c#\	.	4r	4ryy	.	4r	4r	.	2.r	.	(8eee\L	.	4e/	.
8ddd\)	.	.	.	.	.	8ddd/)	.	.	.	.	.	.	.	.	.	.	.	.	.	.	.	8ddd\)	.	.	.
(8ccc#\	.	4r	.	.	.	(8ccc#/	2ee\	.	.	.	.	.	.	4r	4ryy	.	4r	4r	.	.	.	(8ccc#\	.	2e/	.
8bb\	.	.	.	.	.	8bb/	.	.	.	.	.	.	.	.	.	.	.	.	.	.	.	8bb\	.	.	.
8aa\	.	4b\	.	4d\	.	8aa/	.	.	.	.	.	4d\	.	4dd/	4dd\	.	4dd/	4dd\	.	.	.	8aa\	.	.	.
8gg#\J)	.	.	.	.	.	8gg#/J)	.	.	.	.	.	.	.	.	.	.	.	.	.	.	.	8gg#\J)	.	.	.
=15	=15	=15	=15	=15	=15	=15	=15	=15	=15	=15	=15	=15	=15	=15	=15	=15	=15	=15	=15	=15	=15	=15	=15	=15	=15
(8bb\L	.	4e\	.	2c#\	.	(8bb/L	4ee\	.	2.r	2.r	.	2c#\	.	2dd\	2g\	.	2dd\	2g\	.	4AA/	.	(8bb\L	.	4e/	.
8aa\)	.	.	.	.	.	8aa/)	.	.	.	.	.	.	.	.	.	.	.	.	.	.	.	8aa\)	.	.	.
(8gg#\	.	4r	.	.	.	(8gg#/	2ee\	.	.	.	.	.	.	.	.	.	.	.	.	4r	.	(8gg#\	.	2e/	.
8ff#\	.	.	.	.	.	8ff#/	.	.	.	.	.	.	.	.	.	.	.	.	.	.	.	8ff#\	.	.	.
8ee\	.	4b\	.	4d\	.	8ee/	.	.	.	.	.	4d\	.	4dd/	4dd\	.	4dd/	4dd\	.	4r	.	8ee\	.	.	.
8gg#\J)	.	.	.	.	.	8gg#/J)	.	.	.	.	.	.	.	.	.	.	.	.	.	.	.	8gg#\J)	.	.	.
=16	=16	=16	=16	=16	=16	=16	=16	=16	=16	=16	=16	=16	=16	=16	=16	=16	=16	=16	=16	=16	=16	=16	=16	=16	=16
(8bb\L	.	4e\	.	2c#\	.	(8bb/L	4ee\	.	2.r	2.r	.	2c#\	.	2dd\	2g\	.	2dd\	2g\	.	4AA/	.	(8bb\L	.	4e/	.
8aa\)	.	.	.	.	.	8aa/)	.	.	.	.	.	.	.	.	.	.	.	.	.	.	.	8aa\)	.	.	.
(8gg#\	.	4r	.	.	.	(8gg#/	2ee\	.	.	.	.	.	.	.	.	.	.	.	.	4r	.	(8gg#\	.	2e/	.
8ff#\	.	.	.	.	.	8ff#/	.	.	.	.	.	.	.	.	.	.	.	.	.	.	.	8ff#\	.	.	.
8ee\	.	4b\	.	4d\	.	8ee/	.	.	.	.	.	4d\	.	4dd/	4dd\	.	4dd/	4dd\	.	4r	.	8ee\	.	.	.
8gg#\J)	.	.	.	.	.	8gg#/J)	.	.	.	.	.	.	.	.	.	.	.	.	.	.	.	8gg#\J)	.	.	.
=17	=17	=17	=17	=17	=17	=17	=17	=17	=17	=17	=17	=17	=17	=17	=17	=17	=17	=17	=17	=17	=17	=17	=17	=17	=17
(8bb\L	.	4e\	.	2.c#\	.	(8bb/L	4ee\	.	2.r	2.r	.	2.c#\	.	2.dd\	2.g\	.	2.dd\	2.g\	.	4AA/	.	(8bb\L	.	4e/	.
8aa\)	.	.	.	.	.	8aa/)	.	.	.	.	.	.	.	.	.	.	.	.	.	.	.	8aa\)	.	.	.
(8gg#\	.	4r	.	.	.	(8gg#/	2ee\	.	.	.	.	.	.	.	.	.	.	.	.	4r	.	(8gg#\	.	2e/	.
8ff#\	.	.	.	.	.	8ff#/	.	.	.	.	.	.	.	.	.	.	.	.	.	.	.	8ff#\	.	.	.
8ee\	.	4c#\	.	.	.	8ee/	.	.	.	.	.	.	.	.	.	.	.	.	.	4r	.	8ee\	.	.	.
8dd\J)	.	.	.	.	.	8dd/J)	.	.	.	.	.	.	.	.	.	.	.	.	.	.	.	8dd\J)	.	.	.
=18	=18	=18	=18	=18	=18	=18	=18	=18	=18	=18	=18	=18	=18	=18	=18	=18	=18	=18	=18	=18	=18	=18	=18	=18	=18
(8cc#\L	.	4d\	.	2d\	.	(8cc#/L	2ff#\	.	2.r	2.r	.	2d\	.	2.ee\	2.cc\	.	2.ee\	2.cc\	.	4D\	.	(8cc#\L	.	2f#/	.
8b\)	.	.	.	.	.	8b/)	.	.	.	.	.	.	.	.	.	.	.	.	.	.	.	8b\)	.	.	.
(8ff#\	.	4r	.	.	.	(8ff#/	.	.	.	.	.	.	.	.	.	.	.	.	.	4r	.	(8ff#\	.	.	.
8dd\	.	.	.	.	.	8dd/	.	.	.	.	.	.	.	.	.	.	.	.	.	.	.	8dd\	.	.	.
8cc#\	.	4d\	.	4D\	.	8cc#/	8ee\L	.	.	.	.	4D\	.	.	.	.	.	.	.	4r	.	8cc#\	.	8e/L	.
8b\J)	.	.	.	.	.	8b/J)	8dd\J	.	.	.	.	.	.	.	.	.	.	.	.	.	.	8b\J)	.	8d/J	.
=19	=19	=19	=19	=19	=19	=19	=19	=19	=19	=19	=19	=19	=19	=19	=19	=19	=19	=19	=19	=19	=19	=19	=19	=19	=19
(8a\L	.	4e\	.	2E\	.	(8a/L	2cc#\	.	2.r	2.r	.	2E\	.	2.dd/	2.dd\	.	2.dd/	2.dd\	.	2.r	.	(8a\L	.	2c#/	.
8ee\	.	.	.	.	.	8ee/	.	.	.	.	.	.	.	.	.	.	.	.	.	.	.	8ee\	.	.	.
8cc#\)	.	4r	.	.	.	8cc#/)	.	.	.	.	.	.	.	.	.	.	.	.	.	.	.	8cc#\)	.	.	.
8a'\	.	.	.	.	.	8a'/	.	.	.	.	.	.	.	.	.	.	.	.	.	.	.	8a'\	.	.	.
(8b\	.	4e\	.	4E\	.	(8b/	8dd\L	.	.	.	.	4E\	.	.	.	.	.	.	.	.	.	(8b\	.	8d/L	.
8g#\J)	.	.	.	.	.	8g#/J)	8b\J	.	.	.	.	.	.	.	.	.	.	.	.	.	.	8g#\J)	.	8B/J	.
=20	=20	=20	=20	=20	=20	=20	=20	=20	=20	=20	=20	=20	=20	=20	=20	=20	=20	=20	=20	=20	=20	=20	=20	=20	=20
4a/	.	4A/	.	4AA/	.	4a/	4cc#\	.	[2.ggz\	[2.ee\	z	4AA/	.	4dd\	4g/	.	4dd\	4g\	.	4AA/	.	4a/	.	4c#/	.
[2ee\	>Z	4r	.	4r	.	[2eez\	[2cc#\	z	.	.	.	4r	.	4r	4r	.	4r	4r	.	4r	.	[2ee\	>Z	[2cc#z\	z
.	.	4az\	z	4Az\	z	.	.	.	.	.	.	(4A\	f	4r	4r	.	4r	4r	.	4r	.	.	.	.	.
=21	=21	=21	=21	=21	=21	=21	=21	=21	=21	=21	=21	=21	=21	=21	=21	=21	=21	=21	=21	=21	=21	=21	=21	=21	=21
4ee\]	]	4d\	.	4D\	.	4ee\]	4cc#\]	.	4gg\]	4ee\]	.	4D\)	.	2.r	2.r	.	2.r	2.r	.	2.r	.	4ee\]	]	4cc#\]	.
[2ff#\	>Z	4r	.	4r	.	[2ff#z\	[2dd\	z	[2aaz\	[2ff\	z	4r	.	.	.	.	.	.	.	.	.	[2ff#\	>Z	[2ddz\	z
.	.	4Bz/	z	4BBz/	z	.	.	.	.	.	.	(4BBz/	z	.	.	.	.	.	.	.	.	.	.	.	.
=22	=22	=22	=22	=22	=22	=22	=22	=22	=22	=22	=22	=22	=22	=22	=22	=22	=22	=22	=22	=22	=22	=22	=22	=22	=22
4ff#\]	]	4e\	.	4E\	.	4ff#\]	4dd\]	.	4aa\]	4ff\]	.	4E\)	.	2.r	2.r	.	2.r	2.r	.	2.r	.	4ff#\]	]	4dd\]	.
8gg#\L	.	4r	.	4r	.	8gg#\L	8b\L	.	8dd\L	8bn\L	.	4r	.	.	.	.	.	.	.	.	.	8gg#\L	.	8b\L	.
8aa\	.	.	.	.	.	8aa\	8cc#\	.	8ee\	8cc\	.	.	.	.	.	.	.	.	.	.	.	8aa\	.	8cc#\	.
8bb\	.	4e\	.	4E\	.	8bb\	8dd\	.	8ff\	8dd\	.	4E\	.	.	.	.	.	.	.	.	.	8bb\	.	8dd\	.
8gg#\J	.	.	.	.	.	8gg#\J	8b\J	.	8dd\J	8b\J	.	.	.	.	.	.	.	.	.	.	.	8gg#\J	.	8b\J	.
=23	=23	=23	=23	=23	=23	=23	=23	=23	=23	=23	=23	=23	=23	=23	=23	=23	=23	=23	=23	=23	=23	=23	=23	=23	=23
4aa\	.	4A/	.	4A\	.	4aa\	4cc#\	.	4ee\	4cc\	.	4A\	.	2.r	2.r	.	2.r	2.r	.	2.r	.	4aa\	.	4cc#\	.
4r	.	[2c#z\	z	[2c#z\	z	4r	4r	.	4r	4r	.	[2c#z\	z	.	.	.	.	.	.	.	.	4r	.	[2ez/	z
4az/	z	.	.	.	.	4r	4r	.	4r	4r	.	.	.	.	.	.	.	.	.	.	.	4az/	z	.	.
=24	=24	=24	=24	=24	=24	=24	=24	=24	=24	=24	=24	=24	=24	=24	=24	=24	=24	=24	=24	=24	=24	=24	=24	=24	=24
2aa\	.	4c#\]	.	4c#\]	.	2.r	2.r	.	2.r	2.r	.	4c#\]	.	2.r	2.r	.	2.r	2.r	.	2.r	.	2aa\	.	4e/]	.
.	.	[2dz\	z	[2dz\	z	.	.	.	.	.	.	[2dz\	z	.	.	.	.	.	.	.	.	.	.	[2f#z/	z
4aa#z'\	z	.	.	.	.	.	.	.	.	.	.	.	.	.	.	.	.	.	.	.	.	4aa#z\	z	.	.
=25	=25	=25	=25	=25	=25	=25	=25	=25	=25	=25	=25	=25	=25	=25	=25	=25	=25	=25	=25	=25	=25	=25	=25	=25	=25
4bb'\	.	4d\]	.	4d\]	.	4r	4r	.	2.r	2.r	.	4d\]	.	4r	4ryy	.	4r	4r	.	2.r	.	4bb'\	.	4f#/]	.
4ddd'\	.	4B'/	.	4B'\	.	4r	4r	.	.	.	.	4B'\	.	4r	4ryy	.	4r	4r	.	.	.	4ddd'\	.	4d'/	.
4gg#'\	.	4e'\	.	4e'\	.	(4gg#\	(4dd\	.	.	.	.	4e'\	.	4dd/	4dd\	.	4dd/	4dd\	.	.	.	4gg#'\	.	4B'/	.
=26	=26	=26	=26	=26	=26	=26	=26	=26	=26	=26	=26	=26	=26	=26	=26	=26	=26	=26	=26	=26	=26	=26	=26	=26	=26
(8aa\L	.	4A/	.	4A\	.	4aa\)	4cc#\)	.	4ee\	4cc\	.	4A\	.	2gg\	2g\	.	2gg\	2g\	.	4AA/	.	(8aa\L	.	4c#/	.
8gg#\	.	.	.	.	.	.	.	.	.	.	.	.	.	.	.	.	.	.	.	.	.	8gg#\	.	.	.
8aa\)	.	4r	.	4r	.	4r	4r	.	4r	4r	.	4r	.	.	.	.	.	.	.	4r	.	8aa\)	.	4r	.
8ee\]	.	.	.	.	.	.	.	.	.	.	.	.	.	.	.	.	.	.	.	.	.	8ee\]	.	.	.
8bb\	.	8g#\L	.	4E\	.	(4gg#\	(4dd\	.	(4ff\	(4dd\	.	4E\	.	4dd/	4dd\	.	4dd/	4dd\	.	4r	.	8bb\	.	4dd/ 4e/	.
8gg#\J	.	8b\J	.	.	.	.	.	.	.	.	.	.	.	.	.	.	.	.	.	.	.	8gg#\J	.	.	.
=27	=27	=27	=27	=27	=27	=27	=27	=27	=27	=27	=27	=27	=27	=27	=27	=27	=27	=27	=27	=27	=27	=27	=27	=27	=27
(8aa\L	.	4a\	.	4A\	.	4aa\)	4cc#\)	.	4ee\)	4cc\)	.	4A\	.	2gg\	2g\	.	2gg\	2g\	.	4AA/	.	(8aa\L	.	4cc#/ 4e/	.
8gg#\	.	.	.	.	.	.	.	.	.	.	.	.	.	.	.	.	.	.	.	.	.	8gg#\	.	.	.
8aa\)	.	4r	.	4r	.	4r	4r	.	4r	4r	.	4r	.	.	.	.	.	.	.	4r	.	8aa\)	.	4r	.
8ee\	.	.	.	.	.	.	.	.	.	.	.	.	.	.	.	.	.	.	.	.	.	8ee\	.	.	.
8bb\	.	8g#\L	.	4E\	.	(4gg#\	(4dd\	.	(4ff\	(4dd\	.	4E\	.	4dd/	4dd\	.	4dd/	4dd\	.	4r	.	8bb\	.	4dd/ 4e/	.
8gg#\J	.	8b\J	.	.	.	.	.	.	.	.	.	.	.	.	.	.	.	.	.	.	.	8gg#\J	.	.	.
=28	=28	=28	=28	=28	=28	=28	=28	=28	=28	=28	=28	=28	=28	=28	=28	=28	=28	=28	=28	=28	=28	=28	=28	=28	=28
4aa\	.	4a\	.	4A\	.	4aa\)	4cc#\)	.	4ee\)	4cc\)	.	4A\	.	4gg\	4g\	.	4gg\	4g\	.	4AA/	.	4aa\	.	4cc#/ 4e/	.
4r	.	4r	.	4r	.	4r	4r	.	4r	4r	.	4r	.	4r	4r	.	4r	4r	.	4r	.	4r	.	4r	.
=:!!:	=:!!:	=:!!:	=:!!:	=:!!:	=:!!:	=:!!:	=:!!:	=:!!:	=:!!:	=:!!:	=:!!:	=:!!:	=:!!:	=:!!:	=:!!:	=:!!:	=:!!:	=:!!:	=:!!:	=:!!:	=:!!:	=:!!:	=:!!:	=:!!	=:!!
*>B	*	*>B	*	*>B	*	*>B	*	*	*>B	*	*	*>B	*	*>B	*	*	*>B	*	*	*>B	*	*>B	*	*>B	*
4r	.	4r	.	4r	.	4r	4r	.	4r	4r	.	4r	.	4r	4r	.	4r	4r	.	4r	.	4a'/	p	4f#'/	p
2ryy	.	2ryy	.	2ryy	.	2ryy	2ryy	.	2ryy	2ryy	.	2ryy	.	2ryy	2ryy	.	2ryy	2ryy	.	2ryy	.	2ryy	.	2ryy	.
=29	=29	=29	=29	=29	=29	=29	=29	=29	=29	=29	=29	=29	=29	=29	=29	=29	=29	=29	=29	=29	=29	=29	=29	=29	=29
2.r	.	2.r	.	2.r	.	2.r	2.r	.	2.r	2.r	.	2.r	.	2.r	2.r	.	2.r	2.r	.	(4AA'/	pp	(4g#/	.	(4e#/	.
.	.	.	.	.	.	.	.	.	.	.	.	.	.	.	.	.	.	.	.	4AA'/	.	4gn/	.	4en/	.
.	.	.	.	.	.	.	.	.	.	.	.	.	.	.	.	.	.	.	.	4AA'/)	.	4f#/)	.	4d/)	.
=30	=30	=30	=30	=30	=30	=30	=30	=30	=30	=30	=30	=30	=30	=30	=30	=30	=30	=30	=30	=30	=30	=30	=30	=30	=30
2.r	.	2.r	.	2.r	.	4r	4r	.	2.r	2.r	.	2.r	.	4r	4r	.	2.r	2.r	.	4AA/	.	4e/	.	4A/	.
.	.	.	.	.	.	4r	4r	.	.	.	.	.	.	4r	4r	.	.	.	.	4r	.	4r	.	4r	.
.	.	.	.	.	.	4ff#'\	4dd\	p	.	.	.	.	.	4ee'\	4cc\	p	.	.	.	4r	.	4r	.	4r	.
=31	=31	=31	=31	=31	=31	=31	=31	=31	=31	=31	=31	=31	=31	=31	=31	=31	=31	=31	=31	=31	=31	=31	=31	=31	=31
2.r	.	2.r	.	2.r	.	(4aa\	4ff#\	.	2.cc/	2.c/	p	2.r	.	(4gg\	4ee\	.	2.r	2.r	.	2.r	.	2.r	.	2.r	.
.	.	.	.	.	.	4gg\	4ee\	.	.	.	.	.	.	4ff\	4dd\	.	.	.	.	.	.	.	.	.	.
.	.	.	.	.	.	4ee\)	4cc#\	.	.	.	.	.	.	4dd\)	4g\	.	.	.	.	.	.	.	.	.	.
=32	=32	=32	=32	=32	=32	=32	=32	=32	=32	=32	=32	=32	=32	=32	=32	=32	=32	=32	=32	=32	=32	=32	=32	=32	=32
2.r	.	2.r	.	2.r	.	4ff#\	4dd\	.	4ff\	4f\	.	2.r	.	4ee\	4cc\	.	2.r	2.r	.	2.r	.	4r	.	4r	.
.	.	.	.	.	.	4r	4r	.	4r	4r	.	.	.	4r	4r	.	.	.	.	.	.	4r	.	4r	.
.	.	.	.	.	.	4r	4r	.	4r	4r	.	.	.	4r	4r	.	.	.	.	.	.	4dd'\	p	4b'\	p
=33	=33	=33	=33	=33	=33	=33	=33	=33	=33	=33	=33	=33	=33	=33	=33	=33	=33	=33	=33	=33	=33	=33	=33	=33	=33
2.r	.	2.r	.	2.r	.	2.r	2.r	.	2.r	2.r	.	2.r	.	2.r	2.r	.	2.r	2.r	.	(4D'\	pp	(4cc#\	.	(4a#/	.
.	.	.	.	.	.	.	.	.	.	.	.	.	.	.	.	.	.	.	.	4D'\	.	4ccn\	.	4an/	.
.	.	.	.	.	.	.	.	.	.	.	.	.	.	.	.	.	.	.	.	4D'\)	.	4b\)	.	4g/)	.
=34	=34	=34	=34	=34	=34	=34	=34	=34	=34	=34	=34	=34	=34	=34	=34	=34	=34	=34	=34	=34	=34	=34	=34	=34	=34
4r	.	2.r	.	2.r	.	4r	4r	.	2.r	2.r	.	2.r	.	2.r	2.r	.	2.r	2.r	.	4D\	.	4a/	.	4f#/	.
4r	.	.	.	.	.	4r	4r	.	.	.	.	.	.	.	.	.	.	.	.	4r	.	4r	.	4r	.
! zu 2	!	!	!	!	!	!	!	!	!	!	!	!	!	!	!	!	!	!	!	!	!	!	!	!	!
4bb\	.	.	.	.	.	4bb\	4b\	f	.	.	.	.	.	.	.	.	.	.	.	4r	.	4bb\	f	4b\	f
=35	=35	=35	=35	=35	=35	=35	=35	=35	=35	=35	=35	=35	=35	=35	=35	=35	=35	=35	=35	=35	=35	=35	=35	=35	=35
(4ddd\	.	4r	.	4r	.	(4ddd\	4dd\	.	2.r	2.r	.	4r	.	2.r	2.r	.	2.r	2.r	.	2.r	.	(4ddd\	.	(4dd\	.
4cccn\	.	4r	.	4r	.	4cccn\	4ccn\	.	.	.	.	4r	.	.	.	.	.	.	.	.	.	4cccn\	.	4ccn\	.
!	!	!	!	!	!	!	!	!	!	!	!	! zu 2	!	!	!	!	!	!	!	!	!	!	!	!	!
4bb\)	.	4d#\	f	4d#\	f	4bb\)	4b\	.	.	.	.	4d#\	.	.	.	.	.	.	.	.	.	4bb\)	.	4b\)	.
=36	=36	=36	=36	=36	=36	=36	=36	=36	=36	=36	=36	=36	=36	=36	=36	=36	=36	=36	=36	=36	=36	=36	=36	=36	=36
(4aa\	.	(4f#\	.	(4f#\	.	(4aa\	4a\	.	2.r	2.r	.	(4f#\	.	2.r	2.r	.	2.r	2.r	.	2.r	.	(4aa\	.	(4a/	.
4gg\)	.	4e\	.	4e\	.	4gg\)	4g\	.	.	.	.	4e\	.	.	.	.	.	.	.	.	.	4gg\)	.	4g/)	.
4bb\	.	4dn\)	.	4dn\)	.	4bb\	4b\	.	.	.	.	4dn\)	.	.	.	.	.	.	.	.	.	4bb\	.	4b\	.
=37	=37	=37	=37	=37	=37	=37	=37	=37	=37	=37	=37	=37	=37	=37	=37	=37	=37	=37	=37	=37	=37	=37	=37	=37	=37
(4bb-\	.	2c#\	.	2c#\	.	(4bb-\	4b-\	.	2.r	2.r	.	2c#\	.	2.r	2.r	.	2.r	2.r	.	2.r	.	(4bb-\	.	(4b-\	.
4aa\	.	.	.	.	.	4aa\	4a\	.	.	.	.	.	.	.	.	.	.	.	.	.	.	4aa\	.	4a/	.
4gg\)	.	4e\	.	4e\	.	4gg\)	4g\	.	.	.	.	4e\	.	.	.	.	.	.	.	.	.	4gg\)	.	4g/)	.
=38	=38	=38	=38	=38	=38	=38	=38	=38	=38	=38	=38	=38	=38	=38	=38	=38	=38	=38	=38	=38	=38	=38	=38	=38	=38
2ff#\]	.	(4d\	.	(4d\	.	2ff#\	2f#\	.	4r	4r	.	(4d\	.	2.r	2.r	.	2.r	2.r	.	2.r	.	2ff#\]	.	2f#/	.
.	.	4c#\	.	4c#\	.	.	.	.	4r	4r	.	4c#\	.	.	.	.	.	.	.	.	.	.	.	.	.
4aa\	.	4cn\)	.	4cn\)	.	4aa\	4a\	.	4ccc\	4cc\	f	4cn\)	.	.	.	.	.	.	.	.	.	4aa\	.	4a/	.
=39	=39	=39	=39	=39	=39	=39	=39	=39	=39	=39	=39	=39	=39	=39	=39	=39	=39	=39	=39	=39	=39	=39	=39	=39	=39
(4gg\	.	(4B/	.	(4B\	.	(4gg\	4g\	.	(4bb-\	4b-\	.	(4B\	.	2.r	2.r	.	2.r	2.r	.	2.r	.	(4gg\	.	(4g/	.
4ff#\	.	4A/	.	4A\	.	4ff#\	4f#\	.	4aa\	4a\	.	4A\	.	.	.	.	.	.	.	.	.	4ff#\	.	4f#/	.
4ee\)	.	4G/)	.	4G\)	.	4ee/)	4ee\	.	4gg\)	4g\	.	4G\)	.	.	.	.	.	.	.	.	.	4ee\)	.	4e/)	.
=40	=40	=40	=40	=40	=40	=40	=40	=40	=40	=40	=40	=40	=40	=40	=40	=40	=40	=40	=40	=40	=40	=40	=40	=40	=40
(4dd\	.	(4F#/	.	(4F#\	.	(4dd/	4dd\	.	(4ff\	4f\	.	(4F#\	.	2.r	2.r	.	2.r	2.r	.	2.r	.	(4dd\	.	(4d/	.
4cc#\	.	4E/	.	4E\	.	4cc#/	4cc#\	.	4ee/	4e/	.	4E\	.	.	.	.	.	.	.	.	.	4cc#\	.	4c#/	.
4dd\)	.	4D/)	.	4D\)	.	4dd/)	4dd\	.	4ff\)	4f\	.	4D\)	.	.	.	.	.	.	.	.	.	4dd\)	.	4d/)	.
=41	=41	=41	=41	=41	=41	=41	=41	=41	=41	=41	=41	=41	=41	=41	=41	=41	=41	=41	=41	=41	=41	=41	=41	=41	=41
(4ee\	.	(4C#/	.	2C#/	.	(4ee/	4a\	.	(4gg\	4cc\	.	2C#/	.	2.r	2.r	.	2.r	2.r	.	2.r	.	(4ee\	.	(4A/	.
4gg\	.	4A/	.	.	.	4gg/	4ee\	.	4bb-\	4gg\	.	.	.	.	.	.	.	.	.	.	.	4gg\	.	4e/	.
4ff#\)	.	4A/)	.	4D\	.	4ff#/)	4dd\	.	4aa\)	4ff\	.	4D\	.	.	.	.	.	.	.	.	.	4ff#\)	.	4d/)	.
=42	=42	=42	=42	=42	=42	=42	=42	=42	=42	=42	=42	=42	=42	=42	=42	=42	=42	=42	=42	=42	=42	=42	=42	=42	=42
2ee\	.	[2.A/	.	4AA/	.	2ee/	2.cc#\	.	2gg\	2ee\	.	4AA/	.	2.r	2.r	.	2.r	2.r	.	2.r	.	2ee\	.	2c#/	.
.	.	.	.	4AA/	.	.	.	.	.	.	.	4AA/	.	.	.	.	.	.	.	.	.	.	.	.	.
4aa\	.	.	.	4AA/	.	4aa/	.	.	4ee/	4ee\	.	4AA/	.	.	.	.	.	.	.	.	.	4aa\	.	4e/ 4c#/	.
=43	=43	=43	=43	=43	=43	=43	=43	=43	=43	=43	=43	=43	=43	=43	=43	=43	=43	=43	=43	=43	=43	=43	=43	=43	=43
(8gg#\L	.	2.A/_	.	4AA/	.	2.gg#\	2.dd\	.	2.ff\	2.bn\	.	4AA/	.	2.r	2.r	.	2.r	2.r	.	2.r	.	(8gg#\L	.	2.d/ 2.B/	.
8ff#\	.	.	.	.	.	.	.	.	.	.	.	.	.	.	.	.	.	.	.	.	.	8ff#\	.	.	.
8ee\)	.	.	.	4AA/	.	.	.	.	.	.	.	4AA/	.	.	.	.	.	.	.	.	.	8ee\)	.	.	.
8dd'\	.	.	.	.	.	.	.	.	.	.	.	.	.	.	.	.	.	.	.	.	.	8dd'\	.	.	.
8cc#'\	.	.	.	4AA/	.	.	.	.	.	.	.	4AA/	.	.	.	.	.	.	.	.	.	8cc#'\	.	.	.
8b'\J	.	.	.	.	.	.	.	.	.	.	.	.	.	.	.	.	.	.	.	.	.	8b'\J	.	.	.
=44	=44	=44	=44	=44	=44	=44	=44	=44	=44	=44	=44	=44	=44	=44	=44	=44	=44	=44	=44	=44	=44	=44	=44	=44	=44
4a/	.	2.A/_	.	4AA/	.	2.aa\	2.cc#\	.	2.ee\	2.cc\	.	4AA/	.	2.r	2.r	.	2.r	2.r	.	2.r	.	8a'\L	.	2.e/ 2.c#/	.
.	.	.	.	.	.	.	.	.	.	.	.	.	.	.	.	.	.	.	.	.	.	8ee'\	.	.	.
4r	.	.	.	4AA/	.	.	.	.	.	.	.	4AA/	.	.	.	.	.	.	.	.	.	8dd'\	.	.	.
.	.	.	.	.	.	.	.	.	.	.	.	.	.	.	.	.	.	.	.	.	.	8cc#'\	.	.	.
4aa\	.	.	.	4AA/	.	.	.	.	.	.	.	4AA/	.	.	.	.	.	.	.	.	.	8b'\	.	.	.
.	.	.	.	.	.	.	.	.	.	.	.	.	.	.	.	.	.	.	.	.	.	8a'\J	.	.	.
=45	=45	=45	=45	=45	=45	=45	=45	=45	=45	=45	=45	=45	=45	=45	=45	=45	=45	=45	=45	=45	=45	=45	=45	=45	=45
(8gg#\L	.	2.A/_	.	4AA/	.	2.gg#\	2.dd\	.	2.ff\	2.bn\	.	4AA/	.	2.r	2.r	.	2.r	2.r	.	2.r	.	(8g#/L	.	2.d/ 2.B/	.
8ff#\	.	.	.	.	.	.	.	.	.	.	.	.	.	.	.	.	.	.	.	.	.	8f#/	.	.	.
8ee\)	.	.	.	4AA/	.	.	.	.	.	.	.	4AA/	.	.	.	.	.	.	.	.	.	8e/)	.	.	.
8dd'\	.	.	.	.	.	.	.	.	.	.	.	.	.	.	.	.	.	.	.	.	.	8d'/	.	.	.
8cc#'\	.	.	.	4AA/	.	.	.	.	.	.	.	4AA/	.	.	.	.	.	.	.	.	.	8c#'/	.	.	.
8b'\J	.	.	.	.	.	.	.	.	.	.	.	.	.	.	.	.	.	.	.	.	.	8B'/J	.	.	.
=46	=46	=46	=46	=46	=46	=46	=46	=46	=46	=46	=46	=46	=46	=46	=46	=46	=46	=46	=46	=46	=46	=46	=46	=46	=46
4a/	.	4A/]	.	4AA/	.	4aa\	4cc#\	.	4ee\	4cc\	.	4AA/	.	2.r	2.r	.	2.r	2.r	.	2.r	.	(8A/L	.	4e/ 4c#/	.
.	.	.	.	.	.	.	.	.	.	.	.	.	.	.	.	.	.	.	.	.	.	8G#/	.	.	.
4r	.	4r	.	4r	.	4r	4r	.	4r	4r	.	4r	.	.	.	.	.	.	.	.	.	8A/)	.	4r	.
.	.	.	.	.	.	.	.	.	.	.	.	.	.	.	.	.	.	.	.	.	.	8B/	>	.	.
4r	.	4r	.	4r	.	4r	4r	.	4r	4r	.	4r	.	.	.	.	.	.	.	.	.	8c#/	.	4r	.
.	.	.	.	.	.	.	.	.	.	.	.	.	.	.	.	.	.	.	.	.	.	8d/J	.	.	.
=47	=47	=47	=47	=47	=47	=47	=47	=47	=47	=47	=47	=47	=47	=47	=47	=47	=47	=47	=47	=47	=47	=47	=47	=47	=47
2.r	.	2.r	.	2.r	.	2.r	2.r	.	2.r	2.r	.	2.r	.	2.r	2.r	.	2.r	2.r	.	2.r	.	(8e/L	.	2.r	.
.	.	.	.	.	.	.	.	.	.	.	.	.	.	.	.	.	.	.	.	.	.	8c#/	.	.	.
.	.	.	.	.	.	.	.	.	.	.	.	.	.	.	.	.	.	.	.	.	.	8A/)	]	.	.
.	.	.	.	.	.	.	.	.	.	.	.	.	.	.	.	.	.	.	.	.	.	8B/	.	.	.
.	.	.	.	.	.	.	.	.	.	.	.	.	.	.	.	.	.	.	.	.	.	8c#/	.	.	.
.	.	.	.	.	.	.	.	.	.	.	.	.	.	.	.	.	.	.	.	.	.	8d/J	.	.	.
=48	=48	=48	=48	=48	=48	=48	=48	=48	=48	=48	=48	=48	=48	=48	=48	=48	=48	=48	=48	=48	=48	=48	=48	=48	=48
2.r	.	2.r	.	2.r	.	2.r	2.r	.	2.r	2.r	.	2.r	.	2.r	2.r	.	2.r	2.r	.	2.r	.	8e/L	<	2.r	.
.	.	.	.	.	.	.	.	.	.	.	.	.	.	.	.	.	.	.	.	.	.	8f#/	.	.	.
.	.	.	.	.	.	.	.	.	.	.	.	.	.	.	.	.	.	.	.	.	.	8gn/	.	.	.
.	.	.	.	.	.	.	.	.	.	.	.	.	.	.	.	.	.	.	.	.	.	8a/	.	.	.
.	.	.	.	.	.	.	.	.	.	.	.	.	.	.	.	.	.	.	.	.	.	8b/	.	.	.
.	.	.	.	.	.	.	.	.	.	.	.	.	.	.	.	.	.	.	.	.	.	8cc#/J	]	.	.
=49	=49	=49	=49	=49	=49	=49	=49	=49	=49	=49	=49	=49	=49	=49	=49	=49	=49	=49	=49	=49	=49	=49	=49	=49	=49
! zu 2	!	!	!	!	!	!	!	!	!	!	!	! zu 2	!	!	!	!	!	!	!	!	!	!	!	!	!
4dd'\	f	4A'/	f	4D'\	f	4dd/	4f#'/	f	4ff\	4a\	f	4D'\	f	4ee'\	4cc'\	ff	4ee'\	4cc\	f	4D\	f	4dd'\	f	4f#'/	f
4dd'\	.	4A'/	.	4D'\	.	4dd/	4f#'/	.	4ff\	4a\	.	4D'\	.	4ee'\	4cc'\	.	4ee'\	4cc\	.	4D\	.	4dd'\	.	4f#'/	.
4cc#'\	.	4A'/	.	4E'\	.	4cc#/	4g'/	.	4ee\	4g\	.	4E'\	.	4dd'\	4g'/	.	4dd'\	4g\	.	4AA/	.	4cc#'\	.	4g'/	.
=50	=50	=50	=50	=50	=50	=50	=50	=50	=50	=50	=50	=50	=50	=50	=50	=50	=50	=50	=50	=50	=50	=50	=50	=50	=50
2eez\	z	2Az/	z	2C#z/	z	2eez\	2g\	z	2ggz\	2b-\	z	2C#z/	z	2ddz\	2g/	z	2ddz\	2g\	z	4AA/	.	2eez\ 2a\	z	2gz/ 2A/	z
.	.	.	.	.	.	.	.	.	.	.	.	.	.	.	.	.	.	.	.	4r	.	.	.	.	.
(16dd\LL	.	4r	.	4r	.	(16dd/LL	4r	.	(16ff/LL	4r	.	4r	.	4r	4r	.	4r	4r	.	4r	.	(16dd\LL	.	4r	.
16cc#\	.	.	.	.	.	16cc#/	.	.	16ee/	.	.	.	.	.	.	.	.	.	.	.	.	16cc#\	.	.	.
16b\	.	.	.	.	.	16b/	.	.	16dd/	.	.	.	.	.	.	.	.	.	.	.	.	16b\	.	.	.
16a\JJ)	.	.	.	.	.	16a/JJ)	.	.	16cc/JJ)	.	.	.	.	.	.	.	.	.	.	.	.	16a\JJ)	.	.	.
=51	=51	=51	=51	=51	=51	=51	=51	=51	=51	=51	=51	=51	=51	=51	=51	=51	=51	=51	=51	=51	=51	=51	=51	=51	=51
4ff#'\	.	4A'/	.	4d'\	.	4ff#'\	4a\	.	4aa'\xx	4ff\	.	4d'\	.	4ee'\	4cc'\	.	4ee'\	4cc\	.	4D\	.	4ff#'\	.	4a'/	.
4ff#'\	.	4A'/	.	4d'\	.	4ff#'\	4a\	.	4aa'\xx	4ff\	.	4d'\	.	4ee'\	4cc'\	.	4ee'\	4cc\	.	4D\	.	4ff#'\	.	4a'/	.
4ee'\	.	4A'/	.	4c#'\	.	4ee'\	4a\	.	4gg'\xx	4ee\	.	4c#'\	.	4dd'\	4g'\	.	4dd'\	4g\	.	4AA/	.	4ee'\	.	4a'/	.
=52	=52	=52	=52	=52	=52	=52	=52	=52	=52	=52	=52	=52	=52	=52	=52	=52	=52	=52	=52	=52	=52	=52	=52	=52	=52
4gg\	.	4A/	.	4e\	.	4gg\	4a\	.	4bb-\	4gg\	.	4e\	.	4dd\	4g\	.	4dd\	4g\	.	4AA/	.	4gg\	.	4c#/	.
4r	.	4r	.	4r	.	4r	4r	.	4r	4r	.	4r	.	4r	4r	.	4r	4r	.	4r	.	4r	.	4r	.
! 1.	!	!	!	!	!	!	!	!	!	!	!	!	!	!	!	!	!	!	!	!	!	!	!	!	!
(4a/	p	(4A/ 4F#/	p	4r	.	4r	4r	.	4r	4r	.	4r	.	4r	4r	.	4r	4r	.	4r	.	(4a/	p	(4f#/	p
=53	=53	=53	=53	=53	=53	=53	=53	=53	=53	=53	=53	=53	=53	=53	=53	=53	=53	=53	=53	=53	=53	=53	=53	=53	=53
4aa\)	.	4a\ 4f#\)	.	2.r	.	2.r	2.r	.	2.r	2.r	.	2.r	.	2.r	2.r	.	2.r	2.r	.	2.r	.	4aa\)	.	4ff#\)	.
4aa'\	.	4a'\ 4f#\	.	.	.	.	.	.	.	.	.	.	.	.	.	.	.	.	.	.	.	4aa'\	.	4ff#'\	.
(4b\	.	(4B/ 4G/	.	.	.	.	.	.	.	.	.	.	.	.	.	.	.	.	.	.	.	(4b\	.	(4g/	.
=54	=54	=54	=54	=54	=54	=54	=54	=54	=54	=54	=54	=54	=54	=54	=54	=54	=54	=54	=54	=54	=54	=54	=54	=54	=54
4bb\)	.	4b\ 4g\)	.	2.r	.	2.r	2.r	.	2.r	2.r	.	2.r	.	2.r	2.r	.	2.r	2.r	.	2.r	.	4bb\)	.	4gg\)	.
4bb'\	.	4b'\ 4g\	.	.	.	.	.	.	.	.	.	.	.	.	.	.	.	.	.	.	.	4bb'\	.	4gg'\	.
4aa\	.	4a\ 4f#\	.	.	.	.	.	.	.	.	.	.	.	.	.	.	.	.	.	.	.	4aa\	.	4ff#\	.
=55	=55	=55	=55	=55	=55	=55	=55	=55	=55	=55	=55	=55	=55	=55	=55	=55	=55	=55	=55	=55	=55	=55	=55	=55	=55
(4gg#\	.	(4g#\ 4e#\	.	2.r	.	2.r	2.r	.	2.r	2.r	.	2.r	.	2.r	2.r	.	2.r	2.r	.	2.r	.	(4gg#\	.	(4ee#\	.
4ggn\	.	4gn\ 4en\	.	.	.	.	.	.	.	.	.	.	.	.	.	.	.	.	.	.	.	4ggn\	.	4een\	.
4ff#\)	.	4f#\ 4d\)	.	.	.	.	.	.	.	.	.	.	.	.	.	.	.	.	.	.	.	4ff#\)	.	4dd\)	.
=56	=56	=56	=56	=56	=56	=56	=56	=56	=56	=56	=56	=56	=56	=56	=56	=56	=56	=56	=56	=56	=56	=56	=56	=56	=56
4ee\	.	4e\ 4A\	.	2.r	.	2.r	2.r	.	2.r	2.r	.	2.r	.	2.r	2.r	.	2.r	2.r	.	2.r	.	4ee\	.	4cc#\	.
4r	.	4r	.	.	.	.	.	.	.	.	.	.	.	.	.	.	.	.	.	.	.	4r	.	4r	.
! zu 2	!	!	!	!	!	!	!	!	!	!	!	!	!	!	!	!	!	!	!	!	!	!	!	!	!
4a/	f	4r	.	.	.	.	.	.	.	.	.	.	.	.	.	.	.	.	.	.	.	4a/	f	4a/	f
=57	=57	=57	=57	=57	=57	=57	=57	=57	=57	=57	=57	=57	=57	=57	=57	=57	=57	=57	=57	=57	=57	=57	=57	=57	=57
4dd'\	.	4r	.	4r	.	2.r	2.r	.	2.r	2.r	.	2.r	.	2.r	2.r	.	2.r	2.r	.	2.r	.	4dd'\	.	4f#'/	.
4dd'\	.	4r	.	4r	.	.	.	.	.	.	.	.	.	.	.	.	.	.	.	.	.	4dd'\	.	4f#'/	.
4cc#'\	.	4A/	f	4AA/	f	.	.	.	.	.	.	.	.	.	.	.	.	.	.	.	.	4cc#'\	.	4e'/	.
=58	=58	=58	=58	=58	=58	=58	=58	=58	=58	=58	=58	=58	=58	=58	=58	=58	=58	=58	=58	=58	=58	=58	=58	=58	=58
2ee\	.	4a\	.	4A\	.	2.r	2.r	.	2.r	2.r	.	2.r	.	2.r	2.r	.	2.r	2.r	.	2.r	.	2ee\	.	2g/	.
.	.	4a'\	.	4A'\	.	.	.	.	.	.	.	.	.	.	.	.	.	.	.	.	.	.	.	.	.
(16dd\LL	.	4r	.	4r	.	.	.	.	.	.	.	.	.	.	.	.	.	.	.	.	.	(16dd\LL	.	4r	.
16cc#\	.	.	.	.	.	.	.	.	.	.	.	.	.	.	.	.	.	.	.	.	.	16cc#\	.	.	.
16b\	.	.	.	.	.	.	.	.	.	.	.	.	.	.	.	.	.	.	.	.	.	16b\	.	.	.
16a\JJ)	.	.	.	.	.	.	.	.	.	.	.	.	.	.	.	.	.	.	.	.	.	16a\JJ)	.	.	.
=59	=59	=59	=59	=59	=59	=59	=59	=59	=59	=59	=59	=59	=59	=59	=59	=59	=59	=59	=59	=59	=59	=59	=59	=59	=59
*	*	*	*	*	*	*v	*v	*	*	*	*	*	*	*	*	*	*	*	*	*	*	*	*	*	*
*	*	*	*	*	*	*	*	*	*	*	*	*	*v	*v	*	*	*	*	*	*	*	*	*	*
*	*	*	*	*	*	*	*	*	*	*	*	*	*	*	*v	*v	*	*	*	*	*	*	*
4ff#'\	.	2.r	.	2.r	.	4r	.	4r	4r	.	4r	.	4r	.	4r	.	2.r	.	4ff#'\	.	4dd'\	.
4ff#'\	.	.	.	.	.	4r	.	4r	4r	.	4r	.	4r	.	4r	.	.	.	4ff#'\	.	4dd'\	.
!	!	!	!	!	!	! zu 2	!	!	!	!	! zu 2	!	! zu 2	!	! zu 2	!	!	!	!	!	!	!
4ee'\	.	.	.	.	.	4a/	f	4cc/	4c/	f	4AA/	f	4g/	f	4g/	f	.	.	4ee'\	.	4cc#'\	.
=60	=60	=60	=60	=60	=60	=60	=60	=60	=60	=60	=60	=60	=60	=60	=60	=60	=60	=60	=60	=60	=60	=60
2gg\	.	4r	.	4r	.	4aa\	.	4ccc\	4cc\	.	4A\	.	4gg\	.	4gg\	.	4r	.	2gg\	.	2ee\	.
.	.	4r	.	4r	.	4aa'\	.	4ccc'\	4cc'\	.	4A'\	.	4gg'\	.	4gg'\	.	4r	.	.	.	.	.
(16ff#\LL	.	4A/	.	4A\	.	4r	.	4r	4r	.	4r	.	4r	.	4r	.	4AA/	f	(16ff#\LL	.	(16dd\LL	.
16ee\	.	.	.	.	.	.	.	.	.	.	.	.	.	.	.	.	.	.	16ee\	.	16cc#\	.
16dd\	.	.	.	.	.	.	.	.	.	.	.	.	.	.	.	.	.	.	16dd\	.	16b\	.
16cc#\JJ)	.	.	.	.	.	.	.	.	.	.	.	.	.	.	.	.	.	.	16cc#\JJ)	.	16a\JJ)	.
=61	=61	=61	=61	=61	=61	=61	=61	=61	=61	=61	=61	=61	=61	=61	=61	=61	=61	=61	=61	=61	=61	=61
*	*	*	*	*	*	*^	*	*	*	*	*	*	*^	*	*^	*	*	*	*	*	*	*
4aa'\	.	4d'\	.	4d'\	.	2.r	2.r	.	2.r	2.r	.	4r	.	2.r	2.r	.	2.r	2.r	.	4D\	.	4aa'\	.	4ff#'\	.
4aa'\	.	4d'\	.	4d'\	.	.	.	.	.	.	.	4r	.	.	.	.	.	.	.	4D\	.	4aa'\	.	4ff#'\	.
4aa'\	.	4c#'\	.	4c#'\	.	.	.	.	.	.	.	4A\	.	.	.	.	.	.	.	4AA/	.	4aa'\	.	4ee'\	.
=62	=62	=62	=62	=62	=62	=62	=62	=62	=62	=62	=62	=62	=62	=62	=62	=62	=62	=62	=62	=62	=62	=62	=62	=62	=62
2.aa\	.	2e\	.	2e\	.	4r	4ryy	.	2.r	2.r	.	2e\	.	2.r	2.r	.	2.r	2.r	.	4AA/	.	2.aa\	.	2gg\	.
.	.	.	.	.	.	4r	4ryy	.	.	.	.	.	.	.	.	.	.	.	.	4r	.	.	.	.	.
.	.	(16d/LL	.	(16d\LL	.	4a/	4a\	.	.	.	.	(16d\LL	.	.	.	.	.	.	.	4r	.	.	.	(16ff#\LL	.
.	.	16c#/	.	16c#\	.	.	.	.	.	.	.	16c#\	.	.	.	.	.	.	.	.	.	.	.	16ee\	.
.	.	16B/	.	16B\	.	.	.	.	.	.	.	16B\	.	.	.	.	.	.	.	.	.	.	.	16dd\	.
.	.	16A/JJ)	.	16A\JJ)	.	.	.	.	.	.	.	16A\JJ)	.	.	.	.	.	.	.	.	.	.	.	16cc#\JJ)	.
=63	=63	=63	=63	=63	=63	=63	=63	=63	=63	=63	=63	=63	=63	=63	=63	=63	=63	=63	=63	=63	=63	=63	=63	=63	=63
4bb'\	.	4g'\	.	4g'\	.	4bb\	4b\	.	2.r	2.r	.	4g\	.	2.r	2.r	.	2.r	2.r	.	2.r	.	4bb'\	.	4b'\	.
4bb'\	.	4g'\	.	4g'\	.	4bb'\	4cc#\	.	.	.	.	4g'\	.	.	.	.	.	.	.	.	.	4bb'\	.	4cc#'\	.
4aa\	.	4f#\	.	4f#\	.	4aa\	4dd\	.	.	.	.	4f#\	.	.	.	.	.	.	.	.	.	4aa\	.	4dd\	.
=64	=64	=64	=64	=64	=64	=64	=64	=64	=64	=64	=64	=64	=64	=64	=64	=64	=64	=64	=64	=64	=64	=64	=64	=64	=64
(4gg#\	.	(2e\	.	(4e\	.	(4gg#\	(4dd\	.	2.r	2.r	.	(4e\	.	2.r	2.r	.	2.r	2.r	.	2.r	.	(4gg#\	.	(4dd\	.
4ggn\	.	.	.	4A\	.	4ggn\	4cc#\	.	.	.	.	4A\	.	.	.	.	.	.	.	.	.	4ggn\	.	4cc#\	.
4ff#\)	.	4f#\)	.	4d\)	.	4ff#\)	4dd\)	.	.	.	.	4d\)	.	.	.	.	.	.	.	.	.	4ff#\)	.	4dd\)	.
=65	=65	=65	=65	=65	=65	=65	=65	=65	=65	=65	=65	=65	=65	=65	=65	=65	=65	=65	=65	=65	=65	=65	=65	=65	=65
8ee\L	.	2g\	.	2G\	.	8ee/L	2b\	.	2.r	2.r	.	2G\	.	2.r	2.r	.	2.r	2.r	.	2.r	.	8ee\L	.	2b\	.
8ff#\	.	.	.	.	.	8ff#/	.	.	.	.	.	.	.	.	.	.	.	.	.	.	.	8ff#\	.	.	.
8gg\	.	.	.	.	.	8gg/	.	.	.	.	.	.	.	.	.	.	.	.	.	.	.	8gg\	.	.	.
8aa\	.	.	.	.	.	8aa/	.	.	.	.	.	.	.	.	.	.	.	.	.	.	.	8aa\	.	.	.
8bb\	.	4e\	.	4E\	.	8bb/	4g\	.	.	.	.	4E\	.	.	.	.	.	.	.	.	.	8bb\	.	4g/	.
8ccc#\J	.	.	.	.	.	8ccc#/J	.	.	.	.	.	.	.	.	.	.	.	.	.	.	.	8ccc#\J	.	.	.
=66	=66	=66	=66	=66	=66	=66	=66	=66	=66	=66	=66	=66	=66	=66	=66	=66	=66	=66	=66	=66	=66	=66	=66	=66	=66
8ddd\L	.	4A/	.	2F#\	.	4ddd/	4f#\	.	4r	4r	.	2F#\	.	4gg\	4g\	.	4r	4r	.	4D\	.	8ddd\L	.	2a/ 2d/	.
8ccc#\	.	.	.	.	.	.	.	.	.	.	.	.	.	.	.	.	.	.	.	.	.	8ccc#\	.	.	.
8ddd\	.	2A/	.	.	.	4r	4ryy	.	4r	4r	.	.	.	2gg\	2g\	.	4r	4r	.	4r	.	8ddd\	.	.	.
8aa\	.	.	.	.	.	.	.	.	.	.	.	.	.	.	.	.	.	.	.	.	.	8aa\	.	.	.
8eee\	.	.	.	4G\	.	4ccc#/	8cc#\L	.	4cc/	4cc\	.	4G\	.	.	.	.	4dd\	4g\	.	4AA/	.	8eee\	.	8cc#\L	.
8ccc#\J	.	.	.	.	.	.	8ee\J	.	.	.	.	.	.	.	.	.	.	.	.	.	.	8ccc#\J	.	8ee\J	.
=67	=67	=67	=67	=67	=67	=67	=67	=67	=67	=67	=67	=67	=67	=67	=67	=67	=67	=67	=67	=67	=67	=67	=67	=67	=67
8ddd\L	.	4A/	.	2F#\	.	4ddd\	4ff#\	.	4ff\	4f\	.	2F#\	.	4gg\	4g\	.	2ee\	2cc\	.	4D\	.	8ddd\L	.	8dd\L	.
8ccc#\	.	.	.	.	.	.	.	.	.	.	.	.	.	.	.	.	.	.	.	.	.	8ccc#\	.	8cc#\	.
8ddd\	.	2A/	.	.	.	4r	4r	.	4ff\	4f\	.	.	.	2gg\	2g\	.	.	.	.	4r	.	8ddd\	.	8dd\	.
8aa\	.	.	.	.	.	.	.	.	.	.	.	.	.	.	.	.	.	.	.	.	.	8aa\	.	8a\	.
8eee\	.	.	.	4G\	.	4ccc#\	4ee\	.	4cc/	4cc\	.	4G\	.	.	.	.	4dd\	4g\	.	4AA/	.	8eee\	.	8ee\	.
8ccc#\J	.	.	.	.	.	.	.	.	.	.	.	.	.	.	.	.	.	.	.	.	.	8ccc#\J	.	8cc#\J	.
=68	=68	=68	=68	=68	=68	=68	=68	=68	=68	=68	=68	=68	=68	=68	=68	=68	=68	=68	=68	=68	=68	=68	=68	=68	=68
8ddd\L	.	4A/	.	2F#\	.	4ddd\	4ff#\	.	4ff\	4f\	.	2F#\	.	4gg\	4g\	.	2ee\	2cc\	.	4D\	.	8ddd\L	.	8dd\L	.
8ccc#\	.	.	.	.	.	.	.	.	.	.	.	.	.	.	.	.	.	.	.	.	.	8ccc#\	.	8cc#\	.
8ddd\	.	2A/	.	.	.	4r	4r	.	4ff\	4f\	.	.	.	2gg\	2g\	.	.	.	.	4r	.	8ddd\	.	8dd\	.
8aa\	.	.	.	.	.	.	.	.	.	.	.	.	.	.	.	.	.	.	.	.	.	8aa\	.	8a\	.
8eee\	.	.	.	4G\	.	4ccc#\	4ee\	.	4cc/	4cc\	.	4G\	.	.	.	.	4dd\	4g\	.	4AA/	.	8eee\	.	8ee\	.
8ccc#\J	.	.	.	.	.	.	.	.	.	.	.	.	.	.	.	.	.	.	.	.	.	8ccc#\J	.	8cc#\J	.
=69	=69	=69	=69	=69	=69	=69	=69	=69	=69	=69	=69	=69	=69	=69	=69	=69	=69	=69	=69	=69	=69	=69	=69	=69	=69
8ddd\L	.	4A/	.	2.F#\	.	8ddd/L	4ff#\	.	4ff\	4f\	.	2.F#\	.	4gg\	4g\	.	4ee\	4cc\	.	4D\	.	8ddd\L	.	8dd/L	.
8ccc#\	.	.	.	.	.	8ccc#/	.	.	.	.	.	.	.	.	.	.	.	.	.	.	.	8ccc#\	.	8cc#/	.
8bb\	.	2A/	.	.	.	8bb/	4r	.	4ff\	4f\	.	.	.	4r	4r	.	4r	4r	.	4r	.	8bb\	.	8b/	.
8aa\	.	.	.	.	.	8aa/	.	.	.	.	.	.	.	.	.	.	.	.	.	.	.	8aa\	.	8a/	.
8gg\	.	.	.	.	.	8gg/	4a\	.	4cc/	4cc\	.	.	.	4r	4r	.	4r	4r	.	4r	.	8gg\	.	8g/	.
8ff#\J	.	.	.	.	.	8ff#/J	.	.	.	.	.	.	.	.	.	.	.	.	.	.	.	8ff#\J	.	8f#/J	.
=70	=70	=70	=70	=70	=70	=70	=70	=70	=70	=70	=70	=70	=70	=70	=70	=70	=70	=70	=70	=70	=70	=70	=70	=70	=70
8ee\L	.	4B/	.	2.G\	.	8ee/L	4b\	.	4dd/	4dd\	.	2.G\	.	2.r	2.r	.	2.r	2.r	.	2.r	.	8ee\L	.	8e/L	.
8dd#\	.	.	.	.	.	8dd#/	.	.	.	.	.	.	.	.	.	.	.	.	.	.	.	8dd#\	.	8d#/	.
8ee\	.	4B/	.	.	.	8ee/	4r	.	4r	4ryy	.	.	.	.	.	.	.	.	.	.	.	8ee\	.	8e/	.
8ff#\	.	.	.	.	.	8ff#/	.	.	.	.	.	.	.	.	.	.	.	.	.	.	.	8ff#\	.	8f#/	.
8gg\	.	8b\L	.	.	.	8gg/	8b\L	.	4r	4ryy	.	.	.	.	.	.	.	.	.	.	.	8gg\	.	8g/	.
8bb\J	.	8g\J	.	.	.	8bb/J	8g\J	.	.	.	.	.	.	.	.	.	.	.	.	.	.	8bb\J	.	8b/J	.
=71	=71	=71	=71	=71	=71	=71	=71	=71	=71	=71	=71	=71	=71	=71	=71	=71	=71	=71	=71	=71	=71	=71	=71	=71	=71
8aa\L	.	2f#\	.	2A\	.	8aa/L	2f#\	.	2cc\	2a\	.	2A\	.	2ee\	2cc\	.	2ee\	2cc\	.	4AA/	.	8aa\L	.	4a/	.
8ff#\	.	.	.	.	.	8ff#/	.	.	.	.	.	.	.	.	.	.	.	.	.	.	.	8ff#\	.	.	.
8ddn\	.	.	.	.	.	8ddn/	.	.	.	.	.	.	.	.	.	.	.	.	.	2AA/	.	8ddn\	.	8f#/L	.
8ff#\	.	.	.	.	.	8ff#/	.	.	.	.	.	.	.	.	.	.	.	.	.	.	.	8ff#\	.	8a/	.
8ee\	.	4g\	.	4AA/	.	8ee/	4g\	.	4ee\	4g\	.	4AA/	.	4dd\	4g\	.	4dd\	4g\	.	.	.	8ee\	.	8g/	.
8cc#\J	.	.	.	.	.	8cc#/J	.	.	.	.	.	.	.	.	.	.	.	.	.	.	.	8cc#\J	.	8e/J	.
=72	=72	=72	=72	=72	=72	=72	=72	=72	=72	=72	=72	=72	=72	=72	=72	=72	=72	=72	=72	=72	=72	=72	=72	=72	=72
4dd\	.	4f#\	.	4D\	.	4dd/	4f#/	.	4ff\	4a\	.	4D\	.	4cc/	4e\	.	4cc/	4e\	.	4D\	.	4dd\	.	4d/	.
[2aaz\	z	4r	.	4r	.	[2aaz\	[2ff#z\	zz	[2ccz\	[2a\	z	4r	.	4r	4r	.	4r	4r	.	4r	.	[2aaz\	z	[2ff#z\	z
.	.	4ddz\	z	4dz\	z	.	.	.	.	.	.	4dz\	z	4r	4r	.	4r	4r	.	4r	.	.	.	.	.
=73	=73	=73	=73	=73	=73	=73	=73	=73	=73	=73	=73	=73	=73	=73	=73	=73	=73	=73	=73	=73	=73	=73	=73	=73	=73
4aa\]	.	4g\	.	4G\	.	4aa\]	4ff#\]	.	4cc\]	4a\]	.	4G\	.	2.r	2.r	.	2.r	2.r	.	2.r	.	4aa\]	.	4ff#\]	.
[2bbz\	z	4r	.	4r	.	[2bbz\	[2ggz\	zz	[2ddz\	[2b-\	z	4r	.	.	.	.	.	.	.	.	.	[2bbz\	z	[2ggz\	z
.	.	4ez\	z	4Ez\	z	.	.	.	.	.	.	4Ez\	z	.	.	.	.	.	.	.	.	.	.	.	.
=74	=74	=74	=74	=74	=74	=74	=74	=74	=74	=74	=74	=74	=74	=74	=74	=74	=74	=74	=74	=74	=74	=74	=74	=74	=74
4bb\]	.	4a\	.	4A\	.	4bb/]	4gg\]	.	4dd\]	4b-\]	.	4A\	.	2.r	2.r	.	2.r	2.r	.	2.r	.	4bb\]	.	4gg\]	.
8cc#\L	.	4r	.	4r	.	8cc#/L	4g\	.	8ee\L	8g\L	.	4r	.	.	.	.	.	.	.	.	.	8cc#\L	.	8g/L	.
8dd\	.	.	.	.	.	8dd/	.	.	8ff\	8a\	.	.	.	.	.	.	.	.	.	.	.	8dd\	.	8f#/	.
8ee\	.	4A/	.	4AA/	.	8ee/	4g\	.	8gg\	8b-\	.	4AA/	.	.	.	.	.	.	.	.	.	8ee\	.	8e/	.
8cc#\J	.	.	.	.	.	8cc#/J	.	.	8ee\J	8g\J	.	.	.	.	.	.	.	.	.	.	.	8cc#\J	.	8g/J	.
=75	=75	=75	=75	=75	=75	=75	=75	=75	=75	=75	=75	=75	=75	=75	=75	=75	=75	=75	=75	=75	=75	=75	=75	=75	=75
4dd\	.	4d\	.	4D\	.	4dd/	4f#\	.	4ff\	4a\	.	4D\	.	4r	4r	.	4r	4r	.	2.r	.	4dd\	.	4f#/	.
4r	.	[2f#z\	z	[2F#z\	z	4r	[2az\	z	4r	4r	.	[2F#z\	z	[2ggz\	[2ee\	z	[2ggz\	[2ee\	z	.	.	4r	.	[2az/	z
4dddz\	z	.	.	.	.	4dddz/	.	z	4r	4r	.	.	.	.	.	.	.	.	.	.	.	4dddz\	z	.	.
=76	=76	=76	=76	=76	=76	=76	=76	=76	=76	=76	=76	=76	=76	=76	=76	=76	=76	=76	=76	=76	=76	=76	=76	=76	=76
4ee\	.	4f#\]	.	4F#\]	.	4ee/	4a\]	.	2.r	2.r	.	4F#\]	.	4gg\]	4ee\]	.	4gg\]	4ee\]	.	2.r	.	4ee\	.	4a/]	.
4r	.	[2gz\	z	[2Gz\	z	4r	[2bz\	z	.	.	.	[2Gz\	z	2aaz\	2ff\	z	2aaz\	2ff\	z	.	.	4r	.	[2bz\	z
4bbz\	z	.	.	.	.	4bbz/	.	z	.	.	.	.	.	.	.	.	.	.	.	.	.	4bbz\	z	.	.
=77	=77	=77	=77	=77	=77	=77	=77	=77	=77	=77	=77	=77	=77	=77	=77	=77	=77	=77	=77	=77	=77	=77	=77	=77	=77
4b\	.	4g\]	.	4G\]	.	4b/	4b\]	.	4r	4r	.	4G\]	.	4r	4r	.	4r	4r	.	4r	.	4b\	.	4b\]	.
8cc#\L	.	4e\	.	4E\	.	8cc#/L	4g\	.	4r	4r	.	4E\	.	4r	4r	.	4r	4r	.	4r	.	8cc#\L	.	4g/	.
8dd\	.	.	.	.	.	8dd/	.	.	.	.	.	.	.	.	.	.	.	.	.	.	.	8dd\	.	.	.
8ee\	.	8c#\L	.	4AA/	.	8ee/	4g\	.	(4ee\	(4g\	.	4AA/	.	4dd\	4g\	.	4dd\	4g\	.	4AA/	.	8ee\	.	4g/	.
8cc#\J	.	8e\J	.	.	.	8cc#/J	.	.	.	.	.	.	.	.	.	.	.	.	.	.	.	8cc#\J	.	.	.
=78	=78	=78	=78	=78	=78	=78	=78	=78	=78	=78	=78	=78	=78	=78	=78	=78	=78	=78	=78	=78	=78	=78	=78	=78	=78
4dd\	.	4d\	.	4D\	.	(8dd/L	4f#\	.	4ff\)	4a\)	.	4D\	.	4ee\	4cc\	.	4ee\	4cc\	.	4D\	.	(8dd\L	.	4f#/	.
.	.	.	.	.	.	8cc#/	.	.	.	.	.	.	.	.	.	.	.	.	.	.	.	8cc#\	.	.	.
4r	.	4r	.	4r	.	8dd/)	4r	.	4r	4r	.	4r	.	4r	4r	.	4r	4r	.	4r	.	8dd\)	.	4r	.
.	.	.	.	.	.	8a'/xx	.	.	.	.	.	.	.	.	.	.	.	.	.	.	.	8a'\	.	.	.
4ccc#\	.	8c#\L	.	4AA/	.	(8ee/	(4g\	.	(4ee\	(4g\	.	4AA/	.	4dd\	4g\	.	4dd\	4g\	.	4AA/	.	(8ee\	.	4g/ 4A/	.
.	.	8e\J	.	.	.	8cc#/J)	.	.	.	.	.	.	.	.	.	.	.	.	.	.	.	8cc#\J)	.	.	.
=79	=79	=79	=79	=79	=79	=79	=79	=79	=79	=79	=79	=79	=79	=79	=79	=79	=79	=79	=79	=79	=79	=79	=79	=79	=79
4ddd\	.	4d\	.	4D\	.	(8dd/L	4f#\)	.	4ff\)	4a\)	.	4D\	.	4ee\	4cc\	.	4ee\	4cc\	.	4D\	.	(8dd\L	.	4f#/ 4A/	.
.	.	.	.	.	.	8cc#/	.	.	.	.	.	.	.	.	.	.	.	.	.	.	.	8cc#\	.	.	.
4r	.	4r	.	4r	.	8dd/)	4r	.	4r	4r	.	4r	.	4r	4r	.	4r	4r	.	4r	.	8dd\)	.	4r	.
.	.	.	.	.	.	8a'/	.	.	.	.	.	.	.	.	.	.	.	.	.	.	.	8a'\	.	.	.
4ccc#\	.	8c#\L	.	4AA/	.	(8ee/	(4g\	.	(4ee\	(4g\	.	4AA/	.	4dd\	4g\	.	4dd\	4g\	.	4AA/	.	(8ee\	.	4g/ 4A/	.
.	.	8e\J	.	.	.	8cc#/J)	.	.	.	.	.	.	.	.	.	.	.	.	.	.	.	8cc#\J)	.	.	.
=80	=80	=80	=80	=80	=80	=80	=80	=80	=80	=80	=80	=80	=80	=80	=80	=80	=80	=80	=80	=80	=80	=80	=80	=80	=80
4ddd\	.	4d\	.	4D\	.	4dd/	4f#\)	.	4ff\)	4a\)	.	4D\	.	4ee\	4cc\	.	4cc/	4e/	.	4D\	.	4dd\	.	4f#/ 4A/	.
4r	.	4r	.	4r	.	4r	4r	.	4r	4r	.	4r	.	4r	4r	.	4r	4r	.	4r	.	4r	.	4r	.
=:|!	=:|!	=|!:	=|!:	=:|!	=:|!	=:|!	=:|!	=:|!	=:|!	=:|!	=:|!	=:|!	=:|!	=:|!	=:|!	=:|!	=:|!	=:|!	=:|!	=:|!	=:|!	=:|!	=:|!	=:|!	=:|!
*>C	*	*k[f#c#]	*	*>C	*	*	*	*	*	*	*	*>C	*	*	*	*	*	*	*	*>C	*	*>C	*	*>C	*
*k[f#c#]	*	*D/b:	*	*k[f#c#]	*	*	*	*	*	*	*	*k[f#c#]	*	*	*	*	*	*	*	*M3/4	*	*k[f#c#]	*	*k[f#c#]	*
*D:	*	*M3/4	*	*D:	*	*	*	*	*	*	*	*D:	*	*	*	*	*	*	*	*	*	*D:	*	*D:	*
*M3/4	*	*	*	*M3/4	*	*	*	*	*	*	*	*M3/4	*	*	*	*	*	*	*	*	*	*M3/4	*	*M3/4	*
! Trio	!	!	!	!	!	!	!	!	!	!	!	!	!	!	!	!	!	!	!	!	!	!	!	!	!
*	*	*	*	*	*	*v	*v	*	*	*	*	*	*	*	*	*	*	*	*	*	*	*	*	*	*
*	*	*	*	*	*	*>C	*	*	*	*	*	*	*	*	*	*	*	*	*	*	*	*	*	*
*	*	*	*	*	*	*k[f#c#]	*	*	*	*	*	*	*	*	*	*	*	*	*	*	*	*	*	*
*	*	*	*	*	*	*D/b:	*	*	*	*	*	*	*	*	*	*	*	*	*	*	*	*	*	*
*	*	*	*	*	*	*M3/4	*	*	*	*	*	*	*	*	*	*	*	*	*	*	*	*	*	*
!	!	!	!	!	!	! Trio	!	!	!	!	!	!	!	!	!	!	!	!	!	!	!	!	!	!
!	!	!	!	!	!	!	!	!	!	!	!	!	!	!	!	!	!	!	!	!	!	!	!	!
*	*	*	*	*	*	*	*	*v	*v	*	*	*	*	*	*	*	*	*	*	*	*	*	*	*
*	*	*	*	*	*	*	*	*>C	*	*	*	*	*	*	*	*	*	*	*	*	*	*	*
*	*	*	*	*	*	*	*	*k[b-]	*	*	*	*	*	*	*	*	*	*	*	*	*	*	*
*	*	*	*	*	*	*	*	*F/d:	*	*	*	*	*	*	*	*	*	*	*	*	*	*	*
*	*	*	*	*	*	*	*	*M3/4	*	*	*	*	*	*	*	*	*	*	*	*	*	*	*
*	*	*	*	*	*	*	*	*	*	*	*	*v	*v	*	*	*	*	*	*	*	*	*	*
*	*	*	*	*	*	*	*	*	*	*	*	*>C	*	*	*	*	*	*	*	*	*	*
*	*	*	*	*	*	*	*	*	*	*	*	*M3/4	*	*	*	*	*	*	*	*	*	*
*	*	*	*	*	*	*	*	*	*	*	*	*	*	*v	*v	*	*	*	*	*	*	*
*	*	*	*	*	*	*	*	*	*	*	*	*	*	*>C	*	*	*	*	*	*	*
*	*	*	*	*	*	*	*	*	*	*	*	*	*	*M3/4	*	*	*	*	*	*	*
4r	.	4d\	pp	4D\	pp	4ryy	.	4r	.	4r	.	4r	.	4r	.	4r	.	4f#/	pp	4A/	pp
2ryy	.	2ryy	.	2ryy	.	2ryy	.	2ryy	.	2ryy	.	2ryy	.	2ryy	.	2ryy	.	2ryy	.	2ryy	.
=81	=81	=81	=81	=81	=81	=81	=81	=81	=81	=81	=81	=81	=81	=81	=81	=81	=81	=81	=81	=81	=81
*	*	*	*	*	*	*^	*	*^	*	*	*	*^	*	*^	*	*	*	*	*	*	*
2.r	.	2d\	.	2D\	.	2.r	2.r	.	2.r	2.r	.	2.r	.	2.r	2.r	.	2.r	2.r	.	2.r	.	2f#/	.	2A/	.
.	.	4d\	.	4D\	.	.	.	.	.	.	.	.	.	.	.	.	.	.	.	.	.	4f#/	.	4A/	.
=82	=82	=82	=82	=82	=82	=82	=82	=82	=82	=82	=82	=82	=82	=82	=82	=82	=82	=82	=82	=82	=82	=82	=82	=82	=82
2.r	.	2d\	.	2D\	.	2.r	2.r	.	2.r	2.r	.	2.r	.	2.r	2.r	.	2.r	2.r	.	2.r	.	2f#/	.	2A/	.
.	.	4d\	.	4D\	.	.	.	.	.	.	.	.	.	.	.	.	.	.	.	.	.	4f#/	.	4A/	.
=83	=83	=83	=83	=83	=83	=83	=83	=83	=83	=83	=83	=83	=83	=83	=83	=83	=83	=83	=83	=83	=83	=83	=83	=83	=83
2.r	.	2d\	.	2D\	.	2.r	2.r	.	2.r	2.r	.	2.r	.	2.r	2.r	.	2.r	2.r	.	2.r	.	2f#/	.	2A/	.
.	.	4d\	.	4D\	.	.	.	.	.	.	.	.	.	.	.	.	.	.	.	.	.	4f#/	.	4A/	.
=84	=84	=84	=84	=84	=84	=84	=84	=84	=84	=84	=84	=84	=84	=84	=84	=84	=84	=84	=84	=84	=84	=84	=84	=84	=84
4r	.	2d\	.	2D\	.	2.r	2.r	.	2.r	2.r	.	2.r	.	2.r	2.r	.	2.r	2.r	.	2.r	.	2f#/	.	2A/	.
4r	.	.	.	.	.	.	.	.	.	.	.	.	.	.	.	.	.	.	.	.	.	.	.	.	.
! 1.	!	!	!	!	!	!	!	!	!	!	!	!	!	!	!	!	!	!	!	!	!	!	!	!	!
8dd\L	p	4d\	.	4D\	.	.	.	.	.	.	.	.	.	.	.	.	.	.	.	.	.	4f#/	.	4A/	.
8ee\J	.	.	.	.	.	.	.	.	.	.	.	.	.	.	.	.	.	.	.	.	.	.	.	.	.
=85	=85	=85	=85	=85	=85	=85	=85	=85	=85	=85	=85	=85	=85	=85	=85	=85	=85	=85	=85	=85	=85	=85	=85	=85	=85
8ff#\L	.	2d\	.	2D\	.	2.r	2.r	.	2.r	2.r	.	2.r	.	2.r	2.r	.	2.r	2.r	.	2.r	.	2f#/	.	2A/	.
8gg\	.	.	.	.	.	.	.	.	.	.	.	.	.	.	.	.	.	.	.	.	.	.	.	.	.
8aa\	.	.	.	.	.	.	.	.	.	.	.	.	.	.	.	.	.	.	.	.	.	.	.	.	.
8bb\	.	.	.	.	.	.	.	.	.	.	.	.	.	.	.	.	.	.	.	.	.	.	.	.	.
8ccc#\	.	4d\	.	4D\	.	.	.	.	.	.	.	.	.	.	.	.	.	.	.	.	.	4f#/	.	4A/	.
8ddd\J	.	.	.	.	.	.	.	.	.	.	.	.	.	.	.	.	.	.	.	.	.	.	.	.	.
=86	=86	=86	=86	=86	=86	=86	=86	=86	=86	=86	=86	=86	=86	=86	=86	=86	=86	=86	=86	=86	=86	=86	=86	=86	=86
4eee'\	.	2e\	.	2D\	.	2.r	2.r	.	2.r	2.r	.	2.r	.	2.r	2.r	.	2.r	2.r	.	2.r	.	2g/	.	2c#/	.
4eee'\	.	.	.	.	.	.	.	.	.	.	.	.	.	.	.	.	.	.	.	.	.	.	.	.	.
4eee'\	.	4e\	.	4D\	.	.	.	.	.	.	.	.	.	.	.	.	.	.	.	.	.	4g/	.	4c#/	.
=87	=87	=87	=87	=87	=87	=87	=87	=87	=87	=87	=87	=87	=87	=87	=87	=87	=87	=87	=87	=87	=87	=87	=87	=87	=87
4eee'\	.	2e\	.	2D\	.	2.r	2.r	.	2.r	2.r	.	2.r	.	2.r	2.r	.	2.r	2.r	.	2.r	.	2g/	.	2c#/	.
(8ddd\L	.	.	.	.	.	.	.	.	.	.	.	.	.	.	.	.	.	.	.	.	.	.	.	.	.
8ccc#\)	.	.	.	.	.	.	.	.	.	.	.	.	.	.	.	.	.	.	.	.	.	.	.	.	.
(8bb\	.	4e\	.	4D\	.	.	.	.	.	.	.	.	.	.	.	.	.	.	.	.	.	4g/	.	4c#/	.
8aa\J)	.	.	.	.	.	.	.	.	.	.	.	.	.	.	.	.	.	.	.	.	.	.	.	.	.
=88	=88	=88	=88	=88	=88	=88	=88	=88	=88	=88	=88	=88	=88	=88	=88	=88	=88	=88	=88	=88	=88	=88	=88	=88	=88
4ddd\	.	2A/	.	2D\	.	2.r	2.r	.	2.r	2.r	.	2.r	.	2.r	2.r	.	2.r	2.r	.	2.r	.	2f#/	.	2d/	.
8ccc#\L	.	.	.	.	.	.	.	.	.	.	.	.	.	.	.	.	.	.	.	.	.	.	.	.	.
8bb\	.	.	.	.	.	.	.	.	.	.	.	.	.	.	.	.	.	.	.	.	.	.	.	.	.
8aa\	.	4d\	.	4D\	.	.	.	.	.	.	.	.	.	.	.	.	.	.	.	.	.	4f#/	.	4A/	.
8gg\J	.	.	.	.	.	.	.	.	.	.	.	.	.	.	.	.	.	.	.	.	.	.	.	.	.
=89	=89	=89	=89	=89	=89	=89	=89	=89	=89	=89	=89	=89	=89	=89	=89	=89	=89	=89	=89	=89	=89	=89	=89	=89	=89
8ff#\L	.	2d\	.	2D\	.	2.r	2.r	.	2.r	2.r	.	2.r	.	2.r	2.r	.	2.r	2.r	.	2.r	.	2f#/	.	2A/	.
8bb\	.	.	.	.	.	.	.	.	.	.	.	.	.	.	.	.	.	.	.	.	.	.	.	.	.
8aa\	.	.	.	.	.	.	.	.	.	.	.	.	.	.	.	.	.	.	.	.	.	.	.	.	.
8gg\	.	.	.	.	.	.	.	.	.	.	.	.	.	.	.	.	.	.	.	.	.	.	.	.	.
8ff#\	.	4d\	.	4D\	.	.	.	.	.	.	.	.	.	.	.	.	.	.	.	.	.	4f#/	.	4A/	.
8ee\J	.	.	.	.	.	.	.	.	.	.	.	.	.	.	.	.	.	.	.	.	.	.	.	.	.
=90	=90	=90	=90	=90	=90	=90	=90	=90	=90	=90	=90	=90	=90	=90	=90	=90	=90	=90	=90	=90	=90	=90	=90	=90	=90
8dd\L	.	2d\	.	2D\	.	2.r	2.r	.	2.r	2.r	.	2.r	.	2.r	2.r	.	2.r	2.r	.	2.r	.	2f#/	.	2A/	.
8ff#\	.	.	.	.	.	.	.	.	.	.	.	.	.	.	.	.	.	.	.	.	.	.	.	.	.
8ee\	.	.	.	.	.	.	.	.	.	.	.	.	.	.	.	.	.	.	.	.	.	.	.	.	.
8dd\	.	.	.	.	.	.	.	.	.	.	.	.	.	.	.	.	.	.	.	.	.	.	.	.	.
8cc#\	.	4d\	.	4D\	.	.	.	.	.	.	.	.	.	.	.	.	.	.	.	.	.	4f#/	.	4A/	.
8b\J	.	.	.	.	.	.	.	.	.	.	.	.	.	.	.	.	.	.	.	.	.	.	.	.	.
=91	=91	=91	=91	=91	=91	=91	=91	=91	=91	=91	=91	=91	=91	=91	=91	=91	=91	=91	=91	=91	=91	=91	=91	=91	=91
2a/	.	2d\	.	2D\	.	2.r	2.r	.	2.r	2.r	.	2.r	.	2.r	2.r	.	2.r	2.r	.	2.r	.	2a/	.	2f#/	.
4a/	.	4d\	.	4D\	.	.	.	.	.	.	.	.	.	.	.	.	.	.	.	.	.	4a/	.	4f#/	.
=92	=92	=92	=92	=92	=92	=92	=92	=92	=92	=92	=92	=92	=92	=92	=92	=92	=92	=92	=92	=92	=92	=92	=92	=92	=92
2a/	.	2d\	.	2D\	.	2.r	2.r	.	2.r	2.r	.	2.r	.	2.r	2.r	.	2.r	2.r	.	2.r	.	2a/	.	2f#/	.
4a/	.	4d\	.	4D\	.	.	.	.	.	.	.	.	.	.	.	.	.	.	.	.	.	4a/	.	4f#/	.
=93	=93	=93	=93	=93	=93	=93	=93	=93	=93	=93	=93	=93	=93	=93	=93	=93	=93	=93	=93	=93	=93	=93	=93	=93	=93
! zu 2	!	!	!	!	!	!	!	!	!	!	!	! zu 2	!	!	!	!	!	!	!	!	!	!	!	!	!
2a/	ff	2f#\	ff	2D#\	ff	2ccn/	2aa\	ff	2.aa/	2.cc\	ff	2f#\	ff	2gg\	2ee\	ff	2gg\	2g\	ff	4AA/	ff	2a/	ff	2cn/	ff
.	.	.	.	.	.	.	.	.	.	.	.	.	.	.	.	.	.	.	.	4r	.	.	.	.	.
4a/	.	4f#\	.	4D#\	.	4cc/	4aa\	.	.	.	.	4f#\	.	4gg\	4ee\	.	4gg\	4g\	.	4r	.	4a/	.	4c/	.
=94	=94	=94	=94	=94	=94	=94	=94	=94	=94	=94	=94	=94	=94	=94	=94	=94	=94	=94	=94	=94	=94	=94	=94	=94	=94
4a/	.	2e\	.	2E\	.	4cc#/	4aa\	.	4ee/	4cc\	.	2e\	.	2dd/	2dd\	.	2dd/	2dd\	.	2.r	.	4a/	.	4c#/	.
4b\	.	.	.	.	.	4dd/	4bb\	.	4ff/	4dd\	.	.	.	.	.	.	.	.	.	.	.	4b\	.	4d/	.
4g#/	.	4e\	.	4E\	.	4b/	4gg#\	.	4dd/	4bn\	.	4e\	.	4dd/	4dd\	.	4dd/	4dd\	.	.	.	4g#/	.	4B/	.
=95	=95	=95	=95	=95	=95	=95	=95	=95	=95	=95	=95	=95	=95	=95	=95	=95	=95	=95	=95	=95	=95	=95	=95	=95	=95
8a\L	.	2A/	.	2AA/	.	4cc#/	8aa\L	.	8cc/L	8cc\L	.	2A\	.	2dd\	2g\	.	2gg\	2dd\	.	4AA/	.	8a\L	.	2c#/	.
8cc#\	.	.	.	.	.	.	8cc#\	.	8ee/	8e\	.	.	.	.	.	.	.	.	.	.	.	8cc#\	.	.	.
8dd\	.	.	.	.	.	8dd/L	8dd\	.	8ff/	8f\	.	.	.	.	.	.	.	.	.	4r	.	8dd\	.	.	.
8ee\	.	.	.	.	.	8ee/	8ee\	.	8gg/	8g\	.	.	.	.	.	.	.	.	.	.	.	8ee\	.	.	.
8ff#\	.	4A/	.	4AA/	.	8ff#/	8ff#\	.	8aa/	8a\	.	4A\	.	4dd\	4g\	.	4gg\	4dd\	.	4AA/	.	8ff#\	.	4c#/	.
8gg#\J	.	.	.	.	.	8gg#/J	8gg#\J	.	8bbn/J	8bn\J	.	.	.	.	.	.	.	.	.	.	.	8gg#\J	.	.	.
=96	=96	=96	=96	=96	=96	=96	=96	=96	=96	=96	=96	=96	=96	=96	=96	=96	=96	=96	=96	=96	=96	=96	=96	=96	=96
4aa\	.	4A/	.	4AA/	.	4aa/	4aa\	.	4ccc/	4cc\	.	4A\	.	4dd\	4g\	.	4gg\	4dd\	.	4AA/	.	4aa\	.	4c#/	.
4r	.	4r	.	4r	.	4r	4ryy	.	4r	4ryy	.	4r	.	4r	4r	.	4r	4r	.	4r	.	4r	.	4r	.
4r	.	4d\	pp	4D\	pp	4r	4ryy	.	4r	4ryy	.	4r	.	4r	4r	.	4r	4r	.	4r	.	4f#/	pp	4A/	pp
=97	=97	=97	=97	=97	=97	=97	=97	=97	=97	=97	=97	=97	=97	=97	=97	=97	=97	=97	=97	=97	=97	=97	=97	=97	=97
2.r	.	2d\	.	2D\	.	2.r	2.r	.	2.r	2.r	.	2.r	.	2.r	2.r	.	2.r	2.r	.	2.r	.	2f#/	.	2A/	.
.	.	4d\	.	4D\	.	.	.	.	.	.	.	.	.	.	.	.	.	.	.	.	.	4f#/	.	4A/	.
=98	=98	=98	=98	=98	=98	=98	=98	=98	=98	=98	=98	=98	=98	=98	=98	=98	=98	=98	=98	=98	=98	=98	=98	=98	=98
2.r	.	2d\	.	2D\	.	2.r	2.r	.	2.r	2.r	.	2.r	.	2.r	2.r	.	2.r	2.r	.	2.r	.	2f#/	.	2A/	.
.	.	4d\	.	4D\	.	.	.	.	.	.	.	.	.	.	.	.	.	.	.	.	.	4f#/	.	4A/	.
=99	=99	=99	=99	=99	=99	=99	=99	=99	=99	=99	=99	=99	=99	=99	=99	=99	=99	=99	=99	=99	=99	=99	=99	=99	=99
2.r	.	2d\	.	2D\	.	2.r	2.r	.	2.r	2.r	.	2.r	.	2.r	2.r	.	2.r	2.r	.	2.r	.	2f#/	.	2A/	.
.	.	4d\	.	4D\	.	.	.	.	.	.	.	.	.	.	.	.	.	.	.	.	.	4f#/	.	4A/	.
=100	=100	=100	=100	=100	=100	=100	=100	=100	=100	=100	=100	=100	=100	=100	=100	=100	=100	=100	=100	=100	=100	=100	=100	=100	=100
4r	.	2d\	.	2D\	.	2.r	2.r	.	2.r	2.r	.	2.r	.	2.r	2.r	.	2.r	2.r	.	2.r	.	2f#/	.	2A/	.
4r	.	.	.	.	.	.	.	.	.	.	.	.	.	.	.	.	.	.	.	.	.	.	.	.	.
! 1.	!	!	!	!	!	!	!	!	!	!	!	!	!	!	!	!	!	!	!	!	!	!	!	!	!
8dd\L	p	4d\	.	4D\	.	.	.	.	.	.	.	.	.	.	.	.	.	.	.	.	.	4f#/	.	4A/	.
8ee\J	.	.	.	.	.	.	.	.	.	.	.	.	.	.	.	.	.	.	.	.	.	.	.	.	.
=101	=101	=101	=101	=101	=101	=101	=101	=101	=101	=101	=101	=101	=101	=101	=101	=101	=101	=101	=101	=101	=101	=101	=101	=101	=101
8ff#\L	.	2d\	.	2D\	.	2.r	2.r	.	2.r	2.r	.	2.r	.	2.r	2.r	.	2.r	2.r	.	2.r	.	2f#/	.	2A/	.
8gg\	.	.	.	.	.	.	.	.	.	.	.	.	.	.	.	.	.	.	.	.	.	.	.	.	.
8aa\	.	.	.	.	.	.	.	.	.	.	.	.	.	.	.	.	.	.	.	.	.	.	.	.	.
8bb\	.	.	.	.	.	.	.	.	.	.	.	.	.	.	.	.	.	.	.	.	.	.	.	.	.
8ccc#\	.	4d\	.	4D\	.	.	.	.	.	.	.	.	.	.	.	.	.	.	.	.	.	4f#/	.	4A/	.
8ddd\J	.	.	.	.	.	.	.	.	.	.	.	.	.	.	.	.	.	.	.	.	.	.	.	.	.
=102	=102	=102	=102	=102	=102	=102	=102	=102	=102	=102	=102	=102	=102	=102	=102	=102	=102	=102	=102	=102	=102	=102	=102	=102	=102
4eee'\	.	2e\	.	2D\	.	2.r	2.r	.	2.r	2.r	.	2.r	.	2.r	2.r	.	2.r	2.r	.	2.r	.	2g/	.	2c#/	.
4eee'\	.	.	.	.	.	.	.	.	.	.	.	.	.	.	.	.	.	.	.	.	.	.	.	.	.
4eee'\	.	4e\	.	4D\	.	.	.	.	.	.	.	.	.	.	.	.	.	.	.	.	.	4g/	.	4c#/	.
=103	=103	=103	=103	=103	=103	=103	=103	=103	=103	=103	=103	=103	=103	=103	=103	=103	=103	=103	=103	=103	=103	=103	=103	=103	=103
4eee\	.	2e\	.	2D\	.	2.r	2.r	.	2.r	2.r	.	2.r	.	2.r	2.r	.	2.r	2.r	.	2.r	.	2g/	.	2c#/	.
(8ddd\L	.	.	.	.	.	.	.	.	.	.	.	.	.	.	.	.	.	.	.	.	.	.	.	.	.
8ccc#\)	.	.	.	.	.	.	.	.	.	.	.	.	.	.	.	.	.	.	.	.	.	.	.	.	.
(8bb\	.	4e\	.	4D\	.	.	.	.	.	.	.	.	.	.	.	.	.	.	.	.	.	4g/	.	4c#/	.
8aa\J)	.	.	.	.	.	.	.	.	.	.	.	.	.	.	.	.	.	.	.	.	.	.	.	.	.
=104	=104	=104	=104	=104	=104	=104	=104	=104	=104	=104	=104	=104	=104	=104	=104	=104	=104	=104	=104	=104	=104	=104	=104	=104	=104
4ddd\	.	2A/	.	2D\	.	2.r	2.r	.	2.r	2.r	.	2.r	.	2.r	2.r	.	2.r	2.r	.	2.r	.	2f#/	.	2d/	.
8ccc#\L	.	.	.	.	.	.	.	.	.	.	.	.	.	.	.	.	.	.	.	.	.	.	.	.	.
8bb\	.	.	.	.	.	.	.	.	.	.	.	.	.	.	.	.	.	.	.	.	.	.	.	.	.
8aa\	.	4d\	.	4D\	.	.	.	.	.	.	.	.	.	.	.	.	.	.	.	.	.	4f#/	.	4A/	.
8gg\J	.	.	.	.	.	.	.	.	.	.	.	.	.	.	.	.	.	.	.	.	.	.	.	.	.
=105	=105	=105	=105	=105	=105	=105	=105	=105	=105	=105	=105	=105	=105	=105	=105	=105	=105	=105	=105	=105	=105	=105	=105	=105	=105
8ff#\L	.	2d\	.	2D\	.	2.r	2.r	.	2.r	2.r	.	2.r	.	2.r	2.r	.	2.r	2.r	.	2.r	.	2f#/	.	2A/	.
8bb\	.	.	.	.	.	.	.	.	.	.	.	.	.	.	.	.	.	.	.	.	.	.	.	.	.
8aa\	.	.	.	.	.	.	.	.	.	.	.	.	.	.	.	.	.	.	.	.	.	.	.	.	.
8gg\	.	.	.	.	.	.	.	.	.	.	.	.	.	.	.	.	.	.	.	.	.	.	.	.	.
8ff#\	.	4d\	.	4D\	.	.	.	.	.	.	.	.	.	.	.	.	.	.	.	.	.	4f#/	.	4A/	.
8ee\J	.	.	.	.	.	.	.	.	.	.	.	.	.	.	.	.	.	.	.	.	.	.	.	.	.
=106	=106	=106	=106	=106	=106	=106	=106	=106	=106	=106	=106	=106	=106	=106	=106	=106	=106	=106	=106	=106	=106	=106	=106	=106	=106
8dd\L	.	2d\	.	2D\	.	2.r	2.r	.	2.r	2.r	.	2.r	.	2.r	2.r	.	2.r	2.r	.	2.r	.	2f#/	.	2A/	.
8ff#\	.	.	.	.	.	.	.	.	.	.	.	.	.	.	.	.	.	.	.	.	.	.	.	.	.
8ee\	.	.	.	.	.	.	.	.	.	.	.	.	.	.	.	.	.	.	.	.	.	.	.	.	.
8dd\	.	.	.	.	.	.	.	.	.	.	.	.	.	.	.	.	.	.	.	.	.	.	.	.	.
8cc#\	.	4d\	.	4D\	.	.	.	.	.	.	.	.	.	.	.	.	.	.	.	.	.	4f#/	.	4A/	.
8b\J	.	.	.	.	.	.	.	.	.	.	.	.	.	.	.	.	.	.	.	.	.	.	.	.	.
=107	=107	=107	=107	=107	=107	=107	=107	=107	=107	=107	=107	=107	=107	=107	=107	=107	=107	=107	=107	=107	=107	=107	=107	=107	=107
2a/	.	2d\	.	2D\	.	2.r	2.r	.	2.r	2.r	.	2.r	.	2.r	2.r	.	2.r	2.r	.	2.r	.	2a/	.	2f#/	.
4a/	.	4d\	.	4D\	.	.	.	.	.	.	.	.	.	.	.	.	.	.	.	.	.	4a/	.	4f#/	.
=108	=108	=108	=108	=108	=108	=108	=108	=108	=108	=108	=108	=108	=108	=108	=108	=108	=108	=108	=108	=108	=108	=108	=108	=108	=108
2a/	.	2d\	.	2D\	.	2.r	2.r	.	2.r	2.r	.	2.r	.	2.r	2.r	.	2.r	2.r	.	2.r	.	2a/	.	2f#/	.
4a/	.	4d\	.	4D\	.	.	.	.	.	.	.	.	.	.	.	.	.	.	.	.	.	4a/	.	4f#/	.
=109	=109	=109	=109	=109	=109	=109	=109	=109	=109	=109	=109	=109	=109	=109	=109	=109	=109	=109	=109	=109	=109	=109	=109	=109	=109
! zu 2	!	!	!	!	!	!	!	!	!	!	!	! zu 2	!	!	!	!	!	!	!	!	!	!	!	!	!
2a/	ff	2f#\	ff	2D#\	ff	2ccn/	2aa\	ff	2.aa/	2.cc\	ff	2f#\	ff	2gg\	2ee\	ff	2gg\	2ee\	ff	4AA/	ff	2a/	ff	2cn/	ff
.	.	.	.	.	.	.	.	.	.	.	.	.	.	.	.	.	.	.	.	4r	.	.	.	.	.
4a/	.	4f#\	.	4D#\	.	4cc/	4aa\	.	.	.	.	4f#\	.	4gg\	4ee\	.	4gg\	4ee\	.	4AA/	.	4a/	.	4c/	.
=110	=110	=110	=110	=110	=110	=110	=110	=110	=110	=110	=110	=110	=110	=110	=110	=110	=110	=110	=110	=110	=110	=110	=110	=110	=110
4a/	.	2e\	.	2E\	.	4cc#/	4aa\	.	4ee/	4cc\	.	2e\	.	2dd/	2dd\	.	2dd/	2dd\	.	2.r	.	(4a/	.	4c#/	.
4b\	.	.	.	.	.	4dd/	4bb\	.	4ff/	4dd\	.	.	.	.	.	.	.	.	.	.	.	4b\)	.	4d/	.
4g#/	.	4e\	.	4E\	.	4b/	4gg#\	.	4dd/	4bn\	.	4e\	.	4dd/	4dd\	.	4dd/	4dd\	.	.	.	4g#/	.	4B/	.
=111	=111	=111	=111	=111	=111	=111	=111	=111	=111	=111	=111	=111	=111	=111	=111	=111	=111	=111	=111	=111	=111	=111	=111	=111	=111
8a\L	.	2A/	.	2AA/	.	4cc#/	8aa\L	.	8cc/L	8cc/L	.	2A\	.	2dd\	2g\	.	2dd\	2g\	.	4AA/	.	8a\L	.	2c#/	.
8cc#\	.	.	.	.	.	.	8cc#\	.	8ee/	8e/	.	.	.	.	.	.	.	.	.	.	.	8cc#\	.	.	.
8dd\	.	.	.	.	.	8dd/L	8dd\	.	8ff/	8f/	.	.	.	.	.	.	.	.	.	4r	.	8dd\	.	.	.
8ee\	.	.	.	.	.	8ee/	8ee\	.	8gg/	8g/	.	.	.	.	.	.	.	.	.	.	.	8ee\	.	.	.
8ff#\	.	4A/	.	4AA/	.	8ff#/	8ff#\	.	8aa/	8a/	.	4A\	.	4dd\	4g\	.	4dd\	4g\	.	4AA/	.	8ff#\	.	4c#/	.
8gg#\J	.	.	.	.	.	8gg#/J	8gg#\J	.	8bbn/J	8bn/J	.	.	.	.	.	.	.	.	.	.	.	8gg#\J	.	.	.
=112	=112	=112	=112	=112	=112	=112	=112	=112	=112	=112	=112	=112	=112	=112	=112	=112	=112	=112	=112	=112	=112	=112	=112	=112	=112
4aa\	.	4A/	.	4AA/	.	4aa/	4aa\	.	4ccc\	4cc\	.	4A\	.	4dd\	4g\	.	4dd\	4g\	.	4AA/	.	4aa\	.	4c#/	.
4r	.	4r	.	4r	.	4r	4ryy	.	4r	4r	.	4r	.	4r	4r	.	4r	4r	.	4r	.	4r	.	4r	.
=!|:	=!|:	=!|:	=!|:	=!|:	=!|:	=!|:	=!|:	=!|:	=!|:	=!|:	=!|:	=!|:	=!|:	=!|:	=!|:	=!|:	=!|:	=!|:	=!|:	=!|:	=!|:	=!|:	=!|:	=!|:	=!|:
*>D	*	*>C	*	*>D	*	*	*	*	*>D	*	*	*>D	*	*>D	*	*	*>D	*	*	*>D	*	*>D	*	*>D	*
*	*	*	*	*	*	*v	*v	*	*	*	*	*	*	*	*	*	*	*	*	*	*	*	*	*	*
*	*	*	*	*	*	*>D	*	*	*	*	*	*	*	*	*	*	*	*	*	*	*	*	*	*
4r	.	4A#/	p	4r	.	4r	.	4r	4r	.	4r	.	4r	4r	.	4r	4r	.	4r	.	4f#/	p	4c#/	p
2ryy	.	2ryy	.	2ryy	.	2ryy	.	2ryy	2ryy	.	2ryy	.	2ryy	2ryy	.	2ryy	2ryy	.	2ryy	.	2ryy	.	2ryy	.
=113	=113	=113	=113	=113	=113	=113	=113	=113	=113	=113	=113	=113	=113	=113	=113	=113	=113	=113	=113	=113	=113	=113	=113	=113
*	*	*	*	*	*	*^	*	*	*	*	*	*	*	*	*	*	*	*	*	*	*	*	*	*
2.r	.	2A#/	.	2.r	.	2.r	2.r	.	2.r	2.r	.	2.r	.	2.r	2.r	.	2.r	2.r	.	2.r	.	2f#/	.	2c#/	.
.	.	4A#/	.	.	.	.	.	.	.	.	.	.	.	.	.	.	.	.	.	.	.	4f#/	.	4c#/	.
=114	=114	=114	=114	=114	=114	=114	=114	=114	=114	=114	=114	=114	=114	=114	=114	=114	=114	=114	=114	=114	=114	=114	=114	=114	=114
4r	.	2A#/	.	2.r	.	2.r	2.r	.	2.r	2.r	.	2.r	.	2.r	2.r	.	2.r	2.r	.	2.r	.	2f#/	.	2c#/	.
4r	.	.	.	.	.	.	.	.	.	.	.	.	.	.	.	.	.	.	.	.	.	.	.	.	.
! 1.	!	!	!	!	!	!	!	!	!	!	!	!	!	!	!	!	!	!	!	!	!	!	!	!	!
(8eee\L	p	4A#/	.	.	.	.	.	.	.	.	.	.	.	.	.	.	.	.	.	.	.	4f#/	.	4c#/	.
8ddd\J)	.	.	.	.	.	.	.	.	.	.	.	.	.	.	.	.	.	.	.	.	.	.	.	.	.
=115	=115	=115	=115	=115	=115	=115	=115	=115	=115	=115	=115	=115	=115	=115	=115	=115	=115	=115	=115	=115	=115	=115	=115	=115	=115
(8ccc#\L	.	2A#/	.	2.r	.	2.r	2.r	.	2.r	2.r	.	4r	.	2.r	2.r	.	2.r	2.r	.	2.r	.	2f#/	.	2c#/	.
8bb\J)	.	.	.	.	.	.	.	.	.	.	.	.	.	.	.	.	.	.	.	.	.	.	.	.	.
4aa#'\	.	.	.	.	.	.	.	.	.	.	.	4r	.	.	.	.	.	.	.	.	.	.	.	.	.
!	!	!	!	!	!	!	!	!	!	!	!	! 1.	!	!	!	!	!	!	!	!	!	!	!	!	!
4r	.	4A#/	.	.	.	.	.	.	.	.	.	(8F#\L	p	.	.	.	.	.	.	.	.	4f#/	.	4c#/	.
.	.	.	.	.	.	.	.	.	.	.	.	8E\J)	.	.	.	.	.	.	.	.	.	.	.	.	.
=116	=116	=116	=116	=116	=116	=116	=116	=116	=116	=116	=116	=116	=116	=116	=116	=116	=116	=116	=116	=116	=116	=116	=116	=116	=116
4r	.	2B/	.	2.r	.	2.r	2.r	.	2.r	2.r	.	(8D/L	.	2.r	2.r	.	2.r	2.r	.	2.r	.	2g/	.	2d/	.
.	.	.	.	.	.	.	.	.	.	.	.	8C#/J)	.	.	.	.	.	.	.	.	.	.	.	.	.
4r	.	.	.	.	.	.	.	.	.	.	.	4BB/	.	.	.	.	.	.	.	.	.	.	.	.	.
(8ddd\L	.	4B/	.	.	.	.	.	.	.	.	.	4r	.	.	.	.	.	.	.	.	.	4g/	.	4d/	.
8ccc#\J)	.	.	.	.	.	.	.	.	.	.	.	.	.	.	.	.	.	.	.	.	.	.	.	.	.
=117	=117	=117	=117	=117	=117	=117	=117	=117	=117	=117	=117	=117	=117	=117	=117	=117	=117	=117	=117	=117	=117	=117	=117	=117	=117
(8bb\L	.	2B/	.	2.r	.	2.r	2.r	.	2.r	2.r	.	4r	.	2.r	2.r	.	2.r	2.r	.	2.r	.	2g/	.	2d/	.
8aa\J)	.	.	.	.	.	.	.	.	.	.	.	.	.	.	.	.	.	.	.	.	.	.	.	.	.
4ggn\	.	.	.	.	.	.	.	.	.	.	.	4r	.	.	.	.	.	.	.	.	.	.	.	.	.
4r	.	4B/	.	.	.	.	.	.	.	.	.	(8G\L	.	.	.	.	.	.	.	.	.	4g/	.	4d/	.
.	.	.	.	.	.	.	.	.	.	.	.	8F#\J)	.	.	.	.	.	.	.	.	.	.	.	.	.
=118	=118	=118	=118	=118	=118	=118	=118	=118	=118	=118	=118	=118	=118	=118	=118	=118	=118	=118	=118	=118	=118	=118	=118	=118	=118
4r	.	2c#\	.	2.r	.	2.r	2.r	.	2.r	2.r	.	(8E\L	.	2.r	2.r	.	2.r	2.r	.	2.r	.	2a/	.	2e/	.
.	.	.	.	.	.	.	.	.	.	.	.	8D\J)	.	.	.	.	.	.	.	.	.	.	.	.	.
4r	.	.	.	.	.	.	.	.	.	.	.	4C#/	.	.	.	.	.	.	.	.	.	.	.	.	.
(8eee\L	.	4c#\	.	.	.	.	.	.	.	.	.	4r	.	.	.	.	.	.	.	.	.	4a/	.	4e/	.
8ddd\J)	.	.	.	.	.	.	.	.	.	.	.	.	.	.	.	.	.	.	.	.	.	.	.	.	.
=119	=119	=119	=119	=119	=119	=119	=119	=119	=119	=119	=119	=119	=119	=119	=119	=119	=119	=119	=119	=119	=119	=119	=119	=119	=119
(8ccc#\L	.	2c#\	.	2.r	.	2.r	2.r	.	2.r	2.r	.	4r	.	2.r	2.r	.	2.r	2.r	.	2.r	.	2a/	.	2e/	.
8bb\J)	.	.	.	.	.	.	.	.	.	.	.	.	.	.	.	.	.	.	.	.	.	.	.	.	.
4aa\	.	.	.	.	.	.	.	.	.	.	.	4r	.	.	.	.	.	.	.	.	.	.	.	.	.
4r	.	4c#\	.	.	.	.	.	.	.	.	.	(8A\L	.	.	.	.	.	.	.	.	.	4a/	.	4e/	.
.	.	.	.	.	.	.	.	.	.	.	.	8G\J)	.	.	.	.	.	.	.	.	.	.	.	.	.
=120	=120	=120	=120	=120	=120	=120	=120	=120	=120	=120	=120	=120	=120	=120	=120	=120	=120	=120	=120	=120	=120	=120	=120	=120	=120
4r	.	2d\	.	2.r	.	2.r	2.r	.	2.r	2.r	.	(8F#\L	.	2.r	2.r	.	2.r	2.r	.	2.r	.	2a/	.	2f#/	.
.	.	.	.	.	.	.	.	.	.	.	.	8E\J)	.	.	.	.	.	.	.	.	.	.	.	.	.
4r	.	.	.	.	.	.	.	.	.	.	.	4D\	.	.	.	.	.	.	.	.	.	.	.	.	.
(8aa\L	.	4c#\	.	.	.	.	.	.	.	.	.	4r	.	.	.	.	.	.	.	.	.	4a/	.	4e/	.
8gg\J)	.	.	.	.	.	.	.	.	.	.	.	.	.	.	.	.	.	.	.	.	.	.	.	.	.
=121	=121	=121	=121	=121	=121	=121	=121	=121	=121	=121	=121	=121	=121	=121	=121	=121	=121	=121	=121	=121	=121	=121	=121	=121	=121
(8ff#\L	.	2d\	.	4r	.	2.r	2.r	.	2.r	2.r	.	2.r	.	2.r	2.r	.	2.r	2.r	.	2.r	.	2a/	.	2f#/	.
8ee\J)	.	.	.	.	.	.	.	.	.	.	.	.	.	.	.	.	.	.	.	.	.	.	.	.	.
4dd\	.	.	.	4r	.	.	.	.	.	.	.	.	.	.	.	.	.	.	.	.	.	.	.	.	.
4r	.	4c#\	f	4C#/xx	f	.	.	.	.	.	.	.	.	.	.	.	.	.	.	.	.	(8a/L	f	4e/	f
.	.	.	.	.	.	.	.	.	.	.	.	.	.	.	.	.	.	.	.	.	.	8g/J)	.	.	.
=122	=122	=122	=122	=122	=122	=122	=122	=122	=122	=122	=122	=122	=122	=122	=122	=122	=122	=122	=122	=122	=122	=122	=122	=122	=122
2.r	.	2d\	.	2D\	.	2.r	2.r	.	2.r	2.r	.	2.r	.	2.r	2.r	.	2.r	2.r	.	2.r	.	(8f#/L	.	2f#/	.
.	.	.	.	.	.	.	.	.	.	.	.	.	.	.	.	.	.	.	.	.	.	8e/J	.	.	.
.	.	.	.	.	.	.	.	.	.	.	.	.	.	.	.	.	.	.	.	.	.	4d/)	.	.	.
.	.	(8a\L	.	4r	.	.	.	.	.	.	.	.	.	.	.	.	.	.	.	.	.	(8aa\L	.	(8aa\L	.
.	.	8g\J)	.	.	.	.	.	.	.	.	.	.	.	.	.	.	.	.	.	.	.	8gg\J)	.	8gg\J)	.
=123	=123	=123	=123	=123	=123	=123	=123	=123	=123	=123	=123	=123	=123	=123	=123	=123	=123	=123	=123	=123	=123	=123	=123	=123	=123
2.r	.	(8f#\L	.	2.r	.	2.r	2.r	.	2.r	2.r	.	4r	.	2.r	2.r	.	2.r	2.r	.	2.r	.	(8ff#\L	.	(8ff#\L	.
.	.	8e\	.	.	.	.	.	.	.	.	.	.	.	.	.	.	.	.	.	.	.	8ee\	.	8ee\	.
.	.	8d\)	.	.	.	.	.	.	.	.	.	8r	.	.	.	.	.	.	.	.	.	8dd\)	.	8dd\)	.
!	!	!	!	!	!	!	!	!	!	!	!	! zu 2	!	!	!	!	!	!	!	!	!	!	!	!	!
.	.	(8f#\	.	.	.	.	.	.	.	.	.	(8f#\L	.	.	.	.	.	.	.	.	.	(8ff#\	.	(8ff#\	.
.	.	8e\	.	.	.	.	.	.	.	.	.	8e\	.	.	.	.	.	.	.	.	.	8ee\	.	8ee\	.
.	.	8d\J)	.	.	.	.	.	.	.	.	.	8d\J)	.	.	.	.	.	.	.	.	.	8dd\J)	.	8dd\J)	.
=124	=124	=124	=124	=124	=124	=124	=124	=124	=124	=124	=124	=124	=124	=124	=124	=124	=124	=124	=124	=124	=124	=124	=124	=124	=124
4r	.	(8c#/Lxx	.	4r	.	2.r	2.r	.	2.r	2.r	.	(8c#\L	.	2.r	2.r	.	2.r	2.r	.	2.r	.	(8cc#\L	.	(8cc#\Lxx	.
.	.	8B/)	.	.	.	.	.	.	.	.	.	8B\)	.	.	.	.	.	.	.	.	.	8b\)	.	8b\)	.
! zu 2	!	!	!	!	!	!	!	!	!	!	!	!	!	!	!	!	!	!	!	!	!	!	!	!	!
(8ddd\L	f	(8d/	.	(8d\L	f	.	.	.	.	.	.	(8d\	.	.	.	.	.	.	.	.	.	(8dd\	.	(8dd\	.
8ccc#\	.	8c#/	.	8c#\	.	.	.	.	.	.	.	8c#\	.	.	.	.	.	.	.	.	.	8cc#\	.	8cc#\	.
8bb\	.	8B/	.	8B\	.	.	.	.	.	.	.	8B\	.	.	.	.	.	.	.	.	.	8b\	.	8b\	.
8aa\J	.	8A/J	.	8A\J	.	.	.	.	.	.	.	8A\J	.	.	.	.	.	.	.	.	.	8a\J	.	8a\J	.
=125	=125	=125	=125	=125	=125	=125	=125	=125	=125	=125	=125	=125	=125	=125	=125	=125	=125	=125	=125	=125	=125	=125	=125	=125	=125
8gg\L)	.	8G\L)	.	8G\L)	.	2.r	2.r	.	2.r	2.r	.	8G\L)	.	2.r	2.r	.	2.r	2.r	.	2.r	.	8g/L)	.	8g/L)	.
(8bb\	.	(8b\	.	(8B\	.	.	.	.	.	.	.	(8B\	.	.	.	.	.	.	.	.	.	(8b/	.	(8b/	.
8aa\	.	8a\	.	8A\	.	.	.	.	.	.	.	8A\	.	.	.	.	.	.	.	.	.	8a/	.	8a/	.
8gg\	.	8g\	.	8G\	.	.	.	.	.	.	.	8G\	.	.	.	.	.	.	.	.	.	8g/	.	8g/	.
8ff#\	.	8f#\	.	8F#\	.	.	.	.	.	.	.	8F#\	.	.	.	.	.	.	.	.	.	8f#/	.	8f#/	.
8ee\J)	.	8e\J)	.	8E\J)	.	.	.	.	.	.	.	8E\J)	.	.	.	.	.	.	.	.	.	8e/J)	.	8e/J)	.
=126	=126	=126	=126	=126	=126	=126	=126	=126	=126	=126	=126	=126	=126	=126	=126	=126	=126	=126	=126	=126	=126	=126	=126	=126	=126
(8gg\L	.	(8g\L	.	(8G\L	.	2.r	2.r	.	2.r	2.r	.	(8G\L	.	2.r	2.r	.	2.r	2.r	.	2.r	.	(8g/L	.	(8g/L	.
8ff#\	.	8f#\	.	8F#\	.	.	.	.	.	.	.	8F#\	.	.	.	.	.	.	.	.	.	8f#/	.	8f#/	.
8ee\	.	8e\	.	8E\	.	.	.	.	.	.	.	8E\	.	.	.	.	.	.	.	.	.	8e/	.	8e/	.
8dd\	.	8d\	.	8D\	.	.	.	.	.	.	.	8D\	.	.	.	.	.	.	.	.	.	8d/	.	8d/	.
8cc#\	.	8c#\	.	8C#\	.	.	.	.	.	.	.	8C#\	.	.	.	.	.	.	.	.	.	8c#/	.	8c#/	.
8b\J)	.	8B\J)	.	8BB\J)	.	.	.	.	.	.	.	8BB\J)	.	.	.	.	.	.	.	.	.	8B/J)	.	8B/J)	.
=127	=127	=127	=127	=127	=127	=127	=127	=127	=127	=127	=127	=127	=127	=127	=127	=127	=127	=127	=127	=127	=127	=127	=127	=127	=127
4a/	.	4A/	.	4AA/	.	2.r	2.r	.	2.r	2.r	.	4AA/	.	2.r	2.r	.	2.r	2.r	.	2.r	.	8A'/L	.	4A/	.
.	.	.	.	.	.	.	.	.	.	.	.	.	.	.	.	.	.	.	.	.	.	(8g/	.	.	.
4r	.	4r	.	4r	.	.	.	.	.	.	.	4r	.	.	.	.	.	.	.	.	.	8f#/	.	4r	.
.	.	.	.	.	.	.	.	.	.	.	.	.	.	.	.	.	.	.	.	.	.	8e/)	.	.	.
4r	.	4r	.	4r	.	.	.	.	.	.	.	4r	.	.	.	.	.	.	.	.	.	(8b/	.	4r	.
.	.	.	.	.	.	.	.	.	.	.	.	.	.	.	.	.	.	.	.	.	.	8a/J	.	.	.
=128	=128	=128	=128	=128	=128	=128	=128	=128	=128	=128	=128	=128	=128	=128	=128	=128	=128	=128	=128	=128	=128	=128	=128	=128	=128
2.r	.	4g\	.	4AA/	.	2.r	2.r	.	2.r	2.r	.	2.r	.	2.r	2.r	.	2.r	2.r	.	2.r	.	8g\L)	.	4c#/	.
.	.	.	.	.	.	.	.	.	.	.	.	.	.	.	.	.	.	.	.	.	.	(8ee\	.	.	.
.	.	4r	.	4r	.	.	.	.	.	.	.	.	.	.	.	.	.	.	.	.	.	8dd\	.	4r	.
.	.	.	.	.	.	.	.	.	.	.	.	.	.	.	.	.	.	.	.	.	.	8cc#\)	.	.	.
.	.	4r	.	4r	.	.	.	.	.	.	.	.	.	.	.	.	.	.	.	.	.	(8gg\	.	4r	.
.	.	.	.	.	.	.	.	.	.	.	.	.	.	.	.	.	.	.	.	.	.	8ff#\J)	.	.	.
=129	=129	=129	=129	=129	=129	=129	=129	=129	=129	=129	=129	=129	=129	=129	=129	=129	=129	=129	=129	=129	=129	=129	=129	=129	=129
2.r	.	4g\	.	4AA/	.	2.r	2.r	.	2.r	2.r	.	2.r	.	2.r	2.r	.	2.r	2.r	.	2.r	.	(8ee\L	.	4c#/	.
.	.	.	.	.	.	.	.	.	.	.	.	.	.	.	.	.	.	.	.	.	.	8gg\)	.	.	.
.	.	4r	.	4r	.	.	.	.	.	.	.	.	.	.	.	.	.	.	.	.	.	(8bb\	.	4r	.
.	.	.	.	.	.	.	.	.	.	.	.	.	.	.	.	.	.	.	.	.	.	8aa\	.	.	.
.	.	4r	.	4r	.	.	.	.	.	.	.	.	.	.	.	.	.	.	.	.	.	8gg\	.	4r	.
.	.	.	.	.	.	.	.	.	.	.	.	.	.	.	.	.	.	.	.	.	.	8ff#\J)	.	.	.
=130	=130	=130	=130	=130	=130	=130	=130	=130	=130	=130	=130	=130	=130	=130	=130	=130	=130	=130	=130	=130	=130	=130	=130	=130	=130
2.r	.	4g\	.	4AA/	.	2.r	2.r	.	2.r	2.r	.	2.r	.	2.r	2.r	.	2.r	2.r	.	2.r	.	(8ee\L	.	4c#/	.
.	.	.	.	.	.	.	.	.	.	.	.	.	.	.	.	.	.	.	.	.	.	8gg\)	.	.	.
.	.	4r	.	4r	.	.	.	.	.	.	.	.	.	.	.	.	.	.	.	.	.	(8bb\	.	4r	.
.	.	.	.	.	.	.	.	.	.	.	.	.	.	.	.	.	.	.	.	.	.	8aa\	.	.	.
.	.	4r	.	4r	.	.	.	.	.	.	.	.	.	.	.	.	.	.	.	.	.	8gg\	.	4r	.
.	.	.	.	.	.	.	.	.	.	.	.	.	.	.	.	.	.	.	.	.	.	8ff#\J)	.	.	.
=131	=131	=131	=131	=131	=131	=131	=131	=131	=131	=131	=131	=131	=131	=131	=131	=131	=131	=131	=131	=131	=131	=131	=131	=131	=131
2.r	.	4g\	>	4AA/	>	2.r	2.r	.	2.r	2.r	.	2.r	.	2.r	2.r	.	2.r	2.r	.	2.r	.	(8ee\L	>	4c#/	>
.	.	.	.	.	.	.	.	.	.	.	.	.	.	.	.	.	.	.	.	.	.	8gg\)	.	.	.
.	.	4r	.	4r	.	.	.	.	.	.	.	.	.	.	.	.	.	.	.	.	.	(8bb\	.	4r	.
.	.	.	.	.	.	.	.	.	.	.	.	.	.	.	.	.	.	.	.	.	.	8aa\	.	.	.
.	.	4r	]	4r	]	.	.	.	.	.	.	.	.	.	.	.	.	.	.	.	.	8gg\	.	4r	]
.	.	.	.	.	.	.	.	.	.	.	.	.	.	.	.	.	.	.	.	.	.	8ff#\J)	]	.	.
=132	=132	=132	=132	=132	=132	=132	=132	=132	=132	=132	=132	=132	=132	=132	=132	=132	=132	=132	=132	=132	=132	=132	=132	=132	=132
2.r	.	4g\	p	4AA/	p	2.r	2.r	.	2.r	2.r	.	2.r	.	2.r	2.r	.	2.r	2.r	.	2.r	.	(8ee\L	.	4c#/	p
.	.	.	.	.	.	.	.	.	.	.	.	.	.	.	.	.	.	.	.	.	.	8gg\)	.	.	.
.	.	4r	.	4r	.	.	.	.	.	.	.	.	.	.	.	.	.	.	.	.	.	(8bb\	.	4r	.
.	.	.	.	.	.	.	.	.	.	.	.	.	.	.	.	.	.	.	.	.	.	8aa\	.	.	.
.	.	4r	.	4r	.	.	.	.	.	.	.	.	.	.	.	.	.	.	.	.	.	8gg\	.	4r	.
.	.	.	.	.	.	.	.	.	.	.	.	.	.	.	.	.	.	.	.	.	.	8ff#\J)	.	.	.
=133	=133	=133	=133	=133	=133	=133	=133	=133	=133	=133	=133	=133	=133	=133	=133	=133	=133	=133	=133	=133	=133	=133	=133	=133	=133
2.r	.	4g\	.	4AA/	.	2.r	2.r	.	2.r	2.r	.	2.r	.	2.r	2.r	.	2.r	2.r	.	2.r	.	(8ee\L	p	4c#/	.
.	.	.	.	.	.	.	.	.	.	.	.	.	.	.	.	.	.	.	.	.	.	8gg\	.	.	.
.	.	4r	.	4r	.	.	.	.	.	.	.	.	.	.	.	.	.	.	.	.	.	8bb\	.	4r	.
.	.	.	.	.	.	.	.	.	.	.	.	.	.	.	.	.	.	.	.	.	.	8aa\	.	.	.
.	.	4r	.	4r	.	.	.	.	.	.	.	.	.	.	.	.	.	.	.	.	.	8gg\	.	4r	.
.	.	.	.	.	.	.	.	.	.	.	.	.	.	.	.	.	.	.	.	.	.	8ff#\J)	.	.	.
=134	=134	=134	=134	=134	=134	=134	=134	=134	=134	=134	=134	=134	=134	=134	=134	=134	=134	=134	=134	=134	=134	=134	=134	=134	=134
2.r	.	2.r	.	2.r	.	2.r	2.r	.	2.r	2.r	.	2.r	.	2.r	2.r	.	2.r	2.r	.	2.r	.	(8ee\L	.	2.r	.
.	.	.	.	.	.	.	.	.	.	.	.	.	.	.	.	.	.	.	.	.	.	8gg\	.	.	.
.	.	.	.	.	.	.	.	.	.	.	.	.	.	.	.	.	.	.	.	.	.	8bb\	.	.	.
.	.	.	.	.	.	.	.	.	.	.	.	.	.	.	.	.	.	.	.	.	.	8aa\	.	.	.
.	.	.	.	.	.	.	.	.	.	.	.	.	.	.	.	.	.	.	.	.	.	8gg\	.	.	.
.	.	.	.	.	.	.	.	.	.	.	.	.	.	.	.	.	.	.	.	.	.	8ff#\J)	.	.	.
=135	=135	=135	=135	=135	=135	=135	=135	=135	=135	=135	=135	=135	=135	=135	=135	=135	=135	=135	=135	=135	=135	=135	=135	=135	=135
2.r	.	2.r	.	2.r	.	2.r	2.r	.	2.r	2.r	.	2.r	.	2.r	2.r	.	2.r	2.r	.	2.r	.	(8ee\L	.	2.r	.
.	.	.	.	.	.	.	.	.	.	.	.	.	.	.	.	.	.	.	.	.	.	8gg\	.	.	.
.	.	.	.	.	.	.	.	.	.	.	.	.	.	.	.	.	.	.	.	.	.	8bb\	.	.	.
.	.	.	.	.	.	.	.	.	.	.	.	.	.	.	.	.	.	.	.	.	.	8aa\	.	.	.
.	.	.	.	.	.	.	.	.	.	.	.	.	.	.	.	.	.	.	.	.	.	8gg\	.	.	.
.	.	.	.	.	.	.	.	.	.	.	.	.	.	.	.	.	.	.	.	.	.	8ff#\J)	.	.	.
=136	=136	=136	=136	=136	=136	=136	=136	=136	=136	=136	=136	=136	=136	=136	=136	=136	=136	=136	=136	=136	=136	=136	=136	=136	=136
2.r	.	4r	.	2.r	.	2.r	2.r	.	2.r	2.r	.	2.r	.	2.r	2.r	.	2.r	2.r	.	2.r	.	(4ee\	.	4r	.
.	.	4r	.	.	.	.	.	.	.	.	.	.	.	.	.	.	.	.	.	.	.	4ee#\)	.	4r	.
.	.	4d\	p	.	.	.	.	.	.	.	.	.	.	.	.	.	.	.	.	.	.	4ff#\	.	4a/	p
=137	=137	=137	=137	=137	=137	=137	=137	=137	=137	=137	=137	=137	=137	=137	=137	=137	=137	=137	=137	=137	=137	=137	=137	=137	=137
2.r	.	2d\	.	2.r	.	2.r	2.r	.	2.r	2.r	.	2.r	.	2.r	2.r	.	2.r	2.r	.	2.r	.	2ff#\	.	2a/	.
.	.	4d\	.	.	.	.	.	.	.	.	.	.	.	.	.	.	.	.	.	.	.	4ff#\	.	4a/	.
=138	=138	=138	=138	=138	=138	=138	=138	=138	=138	=138	=138	=138	=138	=138	=138	=138	=138	=138	=138	=138	=138	=138	=138	=138	=138
*	*	*	*	*	*	*v	*v	*	*	*	*	*	*	*	*	*	*	*	*	*	*	*	*	*	*
4r	.	2d\	.	4r	.	4r	.	4r	4r	.	4r	.	4r	4r	.	4r	4r	.	4r	.	2ff#\	.	2a/	.
4r	.	.	.	4r	.	4r	.	4r	4r	.	4r	.	4r	4r	.	4r	4r	.	4r	.	.	.	.	.
! zu 2	!	!	!	!	!	! zu 2	!	!	!	!	! zu 2	!	!	!	!	!	!	!	!	!	!	!	!	!
4ddd\	f	4a\	f	8D\L	f	8f#/L	f	4aa\	4ff\	f	8D\L	f	4gg\	4cc\	f	4ee\	4cc\	f	4D\	f	4ff#\	f	4dd\	f
.	.	.	.	8E\J	.	8g/J	.	.	.	.	8E\J	.	.	.	.	.	.	.	.	.	.	.	.	.
=139	=139	=139	=139	=139	=139	=139	=139	=139	=139	=139	=139	=139	=139	=139	=139	=139	=139	=139	=139	=139	=139	=139	=139	=139
4ddd\	.	4a'\	.	8F#\L	.	8a\L	.	4aa\	4ff\	.	8F#\L	.	4gg\	4cc\	.	4ee\	4cc\	.	4D\	.	4ff#'\	.	4dd'\	.
.	.	.	.	8G\	.	8b\	.	.	.	.	8G\	.	.	.	.	.	.	.	.	.	.	.	.	.
4ddd\	.	4a'\	.	8A\	.	8cc#\	.	4aa\	4ff\	.	8A\	.	4gg\	4cc\	.	4ee\	4cc\	.	4D\	.	4ff#'\	.	4dd'\	.
.	.	.	.	8B\	.	8dd\	.	.	.	.	8B\	.	.	.	.	.	.	.	.	.	.	.	.	.
4ddd\	.	4a'\	.	8c#\	.	8ee\	.	4aa\	4ff\	.	8c#\	.	4gg\	4cc\	.	4ee\	4cc\	.	4D\	.	4ff#'\	.	4dd'\	.
.	.	.	.	8d\J	.	8ff#\J	.	.	.	.	8d\J	.	.	.	.	.	.	.	.	.	.	.	.	.
=140	=140	=140	=140	=140	=140	=140	=140	=140	=140	=140	=140	=140	=140	=140	=140	=140	=140	=140	=140	=140	=140	=140	=140	=140
2ccc#\	.	2a\	.	2e\	.	2gg\	.	2bb-\	2ee\	.	2e\	.	4gg\	4g\	.	4ff\	4dd\	.	4AA/	.	2gg\	.	2cc#\	.
.	.	.	.	.	.	.	.	.	.	.	.	.	4r	4r	.	4r	4r	.	4r	.	.	.	.	.
4ccc#\	.	4A/	.	8AA/L	.	8cc#\L	.	4bb-\	4ee\	.	8AA/L	.	4dd\	4g\	.	4dd\	4g\	.	4AA/	.	4gg\	.	4cc#\	.
.	.	.	.	8BB/J	.	8dd\J	.	.	.	.	8BB/J	.	.	.	.	.	.	.	.	.	.	.	.	.
=141	=141	=141	=141	=141	=141	=141	=141	=141	=141	=141	=141	=141	=141	=141	=141	=141	=141	=141	=141	=141	=141	=141	=141	=141
4ccc#\	.	4A/	.	8C#\L	.	8ee\L	.	4bb-\	4ee\	.	8C#\L	.	4dd\	4g\	.	4dd\	4g\	.	4AA/	.	4gg\	.	4cc#\	.
.	.	.	.	8D\	.	8ff#\	.	.	.	.	8D\	.	.	.	.	.	.	.	.	.	.	.	.	.
4ccc#\	.	4A/	.	8E\	.	8gg\	.	4bb-\	4ee\	.	8E\	.	4dd\	4g\	.	4dd\	4g\	.	4AA/	.	4gg\	.	4cc#\	.
.	.	.	.	8F#\	.	8aa\	.	.	.	.	8F#\	.	.	.	.	.	.	.	.	.	.	.	.	.
4ccc#\	.	4A/	.	8G\	.	8bb\	.	4bb-\	4ee\	.	8G\	.	4dd\	4g\	.	4dd\	4g\	.	4AA/	.	4gg\	.	4cc#\	.
.	.	.	.	8A\J	.	8ccc#\J	.	.	.	.	8A\J	.	.	.	.	.	.	.	.	.	.	.	.	.
=142	=142	=142	=142	=142	=142	=142	=142	=142	=142	=142	=142	=142	=142	=142	=142	=142	=142	=142	=142	=142	=142	=142	=142	=142
2ddd\	.	2B/	.	2B\	.	2ddd\	.	2aa\	2ff\	.	2B\	.	4cc/	4e/	.	4cc/	4e/	.	4D\	.	2ff#\	.	2dd\	.
.	.	.	.	.	.	.	.	.	.	.	.	.	4r	4r	.	4r	4r	.	4r	.	.	.	.	.
4bb\	.	4g\	.	8GG/L	.	4bb\	.	4bb-\	4dd\	.	8GG/L	.	4cc/	4c/	.	4cc/	4c/	.	4D\	.	4bb\	.	4dd\	.
.	.	.	.	8AA/J	.	.	.	.	.	.	8AA/J	.	.	.	.	.	.	.	.	.	.	.	.	.
=143	=143	=143	=143	=143	=143	=143	=143	=143	=143	=143	=143	=143	=143	=143	=143	=143	=143	=143	=143	=143	=143	=143	=143	=143
4bb\	.	4g\	.	8BB\L	.	4bb\	.	4bb-\	4dd\	.	8BB\L	.	4cc/	4c/	.	4cc/	4c/	.	4D\	.	4bb\	.	4dd\	.
.	.	.	.	8C#\	.	.	.	.	.	.	8C#\	.	.	.	.	.	.	.	.	.	.	.	.	.
4bb\	.	4g\	.	8D\	.	4bb\	.	4bb-\	4dd\	.	8D\	.	4cc/	4c/	.	4cc/	4c/	.	4D\	.	4bb\	.	4dd\	.
.	.	.	.	8E\	.	.	.	.	.	.	8E\	.	.	.	.	.	.	.	.	.	.	.	.	.
4bb\	.	4g\	.	8F#\	.	4bb\	.	4bb-\	4dd\	.	8F#\	.	4cc/	4c/	.	4cc/	4c/	.	4D\	.	4bb\	.	4dd\	.
.	.	.	.	8G\J	.	.	.	.	.	.	8G\J	.	.	.	.	.	.	.	.	.	.	.	.	.
=144	=144	=144	=144	=144	=144	=144	=144	=144	=144	=144	=144	=144	=144	=144	=144	=144	=144	=144	=144	=144	=144	=144	=144	=144
(2aa\	.	2.f#\	.	8F#\L	.	4aa\	.	2ff/	2ff\	.	8F#\L	.	4cc/	4c/	.	4cc/	4c/	.	4D\	.	(2aa\	.	2.dd\	.
.	.	.	.	8G\	.	.	.	.	.	.	8G\	.	.	.	.	.	.	.	.	.	.	.	.	.
.	.	.	.	8A\	.	4r	.	.	.	.	8A\	.	4r	4r	.	4r	4r	.	4r	.	.	.	.	.
.	.	.	.	8B\	.	.	.	.	.	.	8B\	.	.	.	.	.	.	.	.	.	.	.	.	.
4ff#\)	.	.	.	8c#\	.	4r	.	4r	4ryy	.	8c#\	.	4r	4r	.	4r	4r	.	4r	.	4ff#\)	.	.	.
.	.	.	.	8d\J	.	.	.	.	.	.	8d\J	.	.	.	.	.	.	.	.	.	.	.	.	.
=145	=145	=145	=145	=145	=145	=145	=145	=145	=145	=145	=145	=145	=145	=145	=145	=145	=145	=145	=145	=145	=145	=145	=145	=145
*	*	*	*	*	*	*^	*	*	*	*	*	*	*	*	*	*	*	*	*	*	*	*	*	*
(8dd#\L	.	4g\	.	4G\	.	2.r	2.r	.	2.r	2.r	.	4G\	.	2.r	2.r	.	2.r	2.r	.	2.r	.	(8dd#\L	.	4b\	.
8ee\	.	.	.	.	.	.	.	.	.	.	.	.	.	.	.	.	.	.	.	.	.	8ee\	.	.	.
8ff#\	.	4r	.	4r	.	.	.	.	.	.	.	4r	.	.	.	.	.	.	.	.	.	8ff#\	.	4r	.
8gg\	.	.	.	.	.	.	.	.	.	.	.	.	.	.	.	.	.	.	.	.	.	8gg\	.	.	.
8aa\	.	4r	.	4r	.	.	.	.	.	.	.	4r	.	.	.	.	.	.	.	.	.	8aa\	.	4r	.
8bb\J)	.	.	.	.	.	.	.	.	.	.	.	.	.	.	.	.	.	.	.	.	.	8bb\J)	.	.	.
=146	=146	=146	=146	=146	=146	=146	=146	=146	=146	=146	=146	=146	=146	=146	=146	=146	=146	=146	=146	=146	=146	=146	=146	=146	=146
(8cc#\L	.	4d\	.	4A\	.	2.r	2.r	.	2.r	2.r	.	4A\	.	2.r	2.r	.	2.r	2.r	.	2.r	.	(8cc#\L	.	4f#/	.
8ddn\	.	.	.	.	.	.	.	.	.	.	.	.	.	.	.	.	.	.	.	.	.	8ddn\	.	.	.
8ee\	.	4r	.	4r	.	.	.	.	.	.	.	4r	.	.	.	.	.	.	.	.	.	8ee\	.	4r	.
8ff#\	.	.	.	.	.	.	.	.	.	.	.	.	.	.	.	.	.	.	.	.	.	8ff#\	.	.	.
8gg\	.	4r	.	4r	.	.	.	.	.	.	.	4r	.	.	.	.	.	.	.	.	.	8gg\	.	4r	.
8aa\J)	.	.	.	.	.	.	.	.	.	.	.	.	.	.	.	.	.	.	.	.	.	8aa\J)	.	.	.
=147	=147	=147	=147	=147	=147	=147	=147	=147	=147	=147	=147	=147	=147	=147	=147	=147	=147	=147	=147	=147	=147	=147	=147	=147	=147
(8g#\L	.	4E/	.	4A\	.	2.r	2.r	.	2.r	2.r	.	4A\	.	2.r	2.r	.	2.r	2.r	.	2.r	.	(8g#\L	.	4c#/	.
8a\	.	.	.	.	.	.	.	.	.	.	.	.	.	.	.	.	.	.	.	.	.	8a\	.	.	.
8b\	.	4r	.	4r	.	.	.	.	.	.	.	4r	.	.	.	.	.	.	.	.	.	8b\	.	4r	.
8cc#\	.	.	.	.	.	.	.	.	.	.	.	.	.	.	.	.	.	.	.	.	.	8cc#\	.	.	.
8dd\	.	4r	.	4r	.	.	.	.	.	.	.	4r	.	.	.	.	.	.	.	.	.	8dd\	.	4r	.
8ee\J)	.	.	.	.	.	.	.	.	.	.	.	.	.	.	.	.	.	.	.	.	.	8ee\J)	.	.	.
=148	=148	=148	=148	=148	=148	=148	=148	=148	=148	=148	=148	=148	=148	=148	=148	=148	=148	=148	=148	=148	=148	=148	=148	=148	=148
2.r	.	2.r	.	2.r	.	2.r	2.r	.	2.r	2.r	.	2.r	.	2.r	2.r	.	2.r	2.r	.	2.r	.	2.r	.	2.r	.
=149	=149	=149	=149	=149	=149	=149	=149	=149	=149	=149	=149	=149	=149	=149	=149	=149	=149	=149	=149	=149	=149	=149	=149	=149	=149
2.r	.	4r	.	2.r	.	2.r	2.r	.	2.r	2.r	.	2.r	.	4r	4r	.	2.r	2.r	.	2.r	.	4r	.	4r	.
.	.	4r	.	.	.	.	.	.	.	.	.	.	.	4r	4r	.	.	.	.	.	.	4r	.	4r	.
.	.	4D/	p	.	.	.	.	.	.	.	.	.	.	4g/	4c/	p	.	.	.	.	.	4f#/	p	4A/	p
=150	=150	=150	=150	=150	=150	=150	=150	=150	=150	=150	=150	=150	=150	=150	=150	=150	=150	=150	=150	=150	=150	=150	=150	=150	=150
2.r	.	2D/	.	2.r	.	2.r	2.r	.	2.r	2.r	.	2.r	.	2g/	2c/	.	2.r	2.r	.	2.r	.	2f#/	.	2A/	.
.	.	4D/	.	.	.	.	.	.	.	.	.	.	.	4g/	4c/	.	.	.	.	.	.	4f#/	.	4A/	.
=151	=151	=151	=151	=151	=151	=151	=151	=151	=151	=151	=151	=151	=151	=151	=151	=151	=151	=151	=151	=151	=151	=151	=151	=151	=151
!	!	!	!	!	!	!	!	!	!	!	!	! In Dover, M.151-155 are in [].	!	!	!	!	!	!	!	!	!	!	!	!	!
2.r	.	2D/	.	4r	.	2.r	2.r	.	2.r	2.r	.	4r	.	2g/	2c/	.	2.r	2.r	.	2.r	.	2f#/	.	2A/	.
.	.	.	.	4r	.	.	.	.	.	.	.	4r	.	.	.	.	.	.	.	.	.	.	.	.	.
.	.	4D/	.	4cn\	p	.	.	.	.	.	.	4cn\xx	p	4g/	4c/	.	.	.	.	.	.	4f#/	.	4A/	.
=152	=152	=152	=152	=152	=152	=152	=152	=152	=152	=152	=152	=152	=152	=152	=152	=152	=152	=152	=152	=152	=152	=152	=152	=152	=152
4r	.	2D/	.	2cn\	.	2.r	2.r	.	2.r	2.r	.	2cn\	.	2g/	2c/	.	2.r	2.r	.	2.r	.	2f#/	.	2A/	.
4r	.	.	.	.	.	.	.	.	.	.	.	.	.	.	.	.	.	.	.	.	.	.	.	.	.
! 1.	!	!	!	!	!	!	!	!	!	!	!	!	!	!	!	!	!	!	!	!	!	!	!	!	!
8eee\L	p	4D/	.	4c\	.	.	.	.	.	.	.	4c\	.	4g/	4c/	.	.	.	.	.	.	4f#/	.	4A/	.
8ddd\J	.	.	.	.	.	.	.	.	.	.	.	.	.	.	.	.	.	.	.	.	.	.	.	.	.
=153	=153	=153	=153	=153	=153	=153	=153	=153	=153	=153	=153	=153	=153	=153	=153	=153	=153	=153	=153	=153	=153	=153	=153	=153	=153
8cccn\L	.	2D/	.	2cn\	.	2.r	2.r	.	2.r	2.r	.	2cn\	.	2g/	2d/	.	2.r	2.r	.	2.r	.	2f#/	.	2A/	.
8bb\	.	.	.	.	.	.	.	.	.	.	.	.	.	.	.	.	.	.	.	.	.	.	.	.	.
8aa\	.	.	.	.	.	.	.	.	.	.	.	.	.	.	.	.	.	.	.	.	.	.	.	.	.
8gg\	.	.	.	.	.	.	.	.	.	.	.	.	.	.	.	.	.	.	.	.	.	.	.	.	.
8ff#\	.	4D/	.	4c\	.	.	.	.	.	.	.	4c\	.	4g/	4d/	.	.	.	.	.	.	4f#/	.	4A/	.
8aa\J	.	.	.	.	.	.	.	.	.	.	.	.	.	.	.	.	.	.	.	.	.	.	.	.	.
=154	=154	=154	=154	=154	=154	=154	=154	=154	=154	=154	=154	=154	=154	=154	=154	=154	=154	=154	=154	=154	=154	=154	=154	=154	=154
4gg\	.	2D/	.	4B\	.	2.r	2.r	.	2.r	2.r	.	4B\	.	[2.D/	[2.DD/	.	2.r	2.r	.	2.r	.	2g/	.	2B/	.
4r	.	.	.	4r	.	.	.	.	.	.	.	4r	.	.	.	.	.	.	.	.	.	.	.	.	.
8bb\L	.	4D/	.	4r	.	.	.	.	.	.	.	4r	.	.	.	.	.	.	.	.	.	4g/	.	4B/	.
8aa\J	.	.	.	.	.	.	.	.	.	.	.	.	.	.	.	.	.	.	.	.	.	.	.	.	.
=155	=155	=155	=155	=155	=155	=155	=155	=155	=155	=155	=155	=155	=155	=155	=155	=155	=155	=155	=155	=155	=155	=155	=155	=155	=155
!	!	!	!	! pizz.	!	!	!	!	!	!	!	!	!	!	!	!	!	!	!	!	!	!	!	!	!
8gg\L	.	2E/	.	4AA"/	.	2.r	2.r	.	2.r	2.r	.	4AA/	.	2.D/_	2.DD/_	.	2.r	2.r	.	2.r	.	2g/	.	2c#/	.
8ff#\	.	.	.	.	.	.	.	.	.	.	.	.	.	.	.	.	.	.	.	.	.	.	.	.	.
8ee\	.	.	.	4r	.	.	.	.	.	.	.	4r	.	.	.	.	.	.	.	.	.	.	.	.	.
8dd\	.	.	.	.	.	.	.	.	.	.	.	.	.	.	.	.	.	.	.	.	.	.	.	.	.
8cc#\	.	4E/	.	4r	.	.	.	.	.	.	.	4r	.	.	.	.	.	.	.	.	.	4g/	.	4c#/	.
8ee\J	.	.	.	.	.	.	.	.	.	.	.	.	.	.	.	.	.	.	.	.	.	.	.	.	.
=156	=156	=156	=156	=156	=156	=156	=156	=156	=156	=156	=156	=156	=156	=156	=156	=156	=156	=156	=156	=156	=156	=156	=156	=156	=156
4dd\	.	2F#/	.	4D"\	.	2.r	2.r	.	2.r	2.r	.	4r	.	2.D/_	2.DD/_	.	2.r	2.r	.	2.r	.	2f#/	.	2d/	.
4r	.	.	.	4r	.	.	.	.	.	.	.	4r	.	.	.	.	.	.	.	.	.	.	.	.	.
!	!	!	!	!	!	!	!	!	!	!	!	! Solo	!	!	!	!	!	!	!	!	!	!	!	!	!
4r	.	4A/	.	4r	.	.	.	.	.	.	.	8e\Lxx	p	.	.	.	.	.	.	.	.	8ee\L	.	4d/	.
.	.	.	.	.	.	.	.	.	.	.	.	8d\J	.	.	.	.	.	.	.	.	.	8dd\J	.	.	.
=157	=157	=157	=157	=157	=157	=157	=157	=157	=157	=157	=157	=157	=157	=157	=157	=157	=157	=157	=157	=157	=157	=157	=157	=157	=157
2.ff#\	.	2cn\	.	4D"\	.	2.r	2.r	.	2.r	2.r	.	8cn\L	.	2.D/_	2.DD/_	.	2.r	2.r	.	2.r	.	8ccn/L	.	2f#/	.
.	.	.	.	.	.	.	.	.	.	.	.	8B\	.	.	.	.	.	.	.	.	.	8b/	.	.	.
.	.	.	.	4r	.	.	.	.	.	.	.	8A\	.	.	.	.	.	.	.	.	.	8a/	.	.	.
.	.	.	.	.	.	.	.	.	.	.	.	8G\	.	.	.	.	.	.	.	.	.	8g/	.	.	.
.	.	4c\	.	4r	.	.	.	.	.	.	.	8F#\	.	.	.	.	.	.	.	.	.	8f#/	.	4f#/	.
.	.	.	.	.	.	.	.	.	.	.	.	8A\J	.	.	.	.	.	.	.	.	.	8a/J	.	.	.
=158	=158	=158	=158	=158	=158	=158	=158	=158	=158	=158	=158	=158	=158	=158	=158	=158	=158	=158	=158	=158	=158	=158	=158	=158	=158
4gg\	.	2B/	.	4D"\	.	2.r	2.r	.	2.r	2.r	.	4G\	.	2.D/_	2.DD/_	.	2.r	2.r	.	2.r	.	4g/	.	2g/	.
4r	.	.	.	4r	.	.	.	.	.	.	.	4r	.	.	.	.	.	.	.	.	.	4r	.	.	.
4r	.	4B/	.	4r	.	.	.	.	.	.	.	8B\L	.	.	.	.	.	.	.	.	.	8b/L	.	4g/	.
.	.	.	.	.	.	.	.	.	.	.	.	8A\J	.	.	.	.	.	.	.	.	.	8a/J	.	.	.
=159	=159	=159	=159	=159	=159	=159	=159	=159	=159	=159	=159	=159	=159	=159	=159	=159	=159	=159	=159	=159	=159	=159	=159	=159	=159
2.ccc#\	.	2E/	.	4D"\	.	2.r	2.r	.	2.r	2.r	.	8G\L	.	2.D/_	2.DD/_	.	2.r	2.r	.	2.r	.	8g/L	.	2c#/	.
.	.	.	.	.	.	.	.	.	.	.	.	8F#\	.	.	.	.	.	.	.	.	.	8f#/	.	.	.
.	.	.	.	4r	.	.	.	.	.	.	.	8E\	.	.	.	.	.	.	.	.	.	8e/	.	.	.
.	.	.	.	.	.	.	.	.	.	.	.	8D\	.	.	.	.	.	.	.	.	.	8d/	.	.	.
.	.	4G/	.	4r	.	.	.	.	.	.	.	8C#\	.	.	.	.	.	.	.	.	.	8c#/	.	4c#/	.
.	.	.	.	.	.	.	.	.	.	.	.	8E\J	.	.	.	.	.	.	.	.	.	8e/J	.	.	.
=160	=160	=160	=160	=160	=160	=160	=160	=160	=160	=160	=160	=160	=160	=160	=160	=160	=160	=160	=160	=160	=160	=160	=160	=160	=160
! Men. D. C.	!	!	!	! Men. D. C.	!	!	!	!	!	!	!	!	!	!	!	!	!	!	!	!	!	!	!	!	!
*	*	*	*	*	*	*v	*v	*	*	*	*	*	*	*	*	*	*	*	*	*	*	*	*	*	*
*	*	*	*	*	*	*	*	*v	*v	*	*	*	*	*	*	*	*	*	*	*	*	*	*	*
4ddd\	.	4F#/	.	4D"\	.	4r	.	4r	.	4D\	.	4D/]	4DD/]	.	4r	4r	.	4r	.	4d/	.	4d/	.
4r	.	4r	.	4r	.	4r	.	4r	.	4r	.	4r	4r	.	4r	4r	.	4r	.	4r	.	4r	.
==:|!	==:|!	==:|!	==:|!	==:|!	==:|!	==:|!	==:|!	==:|!	==:|!	==:|!	==:|!	==:|!	==:|!	==:|!	==:|!	==:|!	==:|!	==:|!	==:|!	==:|!	==:|!	==:|!	==:|!
*-	*-	*-	*-	*-	*-	*-	*-	*-	*-	*-	*-	*-	*-	*-	*-	*-	*-	*-	*-	*-	*-	*-	*-
!!!RWG: Key is interpreted using the Humdrum key tool.
!!!OPT: The Clock
!!!AFT: stage2
!!!END: 1996/04/25
!!format changes:
!!content changes:
!!public access: complete
!!!KEY: 2212153383
!!!EMD: Converted from MuseData to Humdrum Dec 16, 2000, by Andreas Kornstaedt using muse2kern.
